lut/Candlelight.3DL
#Created by: Adobe Photoshop Export Color Lookup Plugin
#Description: Candlelight.jpg
0 33 66 99 132 165 198 231 264 297 330 363 396 429 462 495 528 561 594 627 660 693 726 759 792 825 858 891 924 957 990 1023
96 80 64
105 80 72
115 83 83
165 124 124
214 166 168
255 207 226
297 246 282
338 270 332
376 293 380
400 310 421
431 332 468
472 365 526
498 385 574
498 385 608
502 385 644
510 385 686
530 390 744
564 398 819
601 416 888
643 440 955
710 496 1057
793 571 1182
876 634 1300
959 692 1416
1060 769 1576
1168 852 1750
1303 948 1951
1444 1047 2158
1606 1169 2387
1772 1293 2619
1884 1371 2789
1991 1445 2955
179 163 114
179 163 114
187 163 123
190 166 149
237 205 190
264 232 226
307 274 284
355 312 340
392 337 390
417 360 438
445 376 479
480 398 526
509 419 581
514 419 624
522 426 665
535 435 711
543 431 752
564 431 810
606 453 890
651 482 963
703 512 1045
777 571 1157
877 651 1298
967 717 1425
1062 781 1578
1168 860 1750
1310 963 1951
1452 1064 2158
1607 1178 2387
1772 1301 2619
1891 1395 2797
2000 1470 2963
262 247 165
262 247 165
262 247 165
262 247 190
264 249 215
289 274 249
315 299 285
365 341 343
409 378 398
434 403 448
461 425 495
494 441 537
518 453 581
526 453 630
538 459 680
555 476 730
567 481 776
575 472 817
607 486 882
656 520 965
712 554 1054
770 587 1145
860 652 1274
968 735 1423
1071 807 1586
1170 873 1751
1310 972 1951
1459 1080 2158
1615 1195 2387
1773 1311 2619
1891 1402 2796
2007 1494 2970
336 347 231
336 347 231
336 346 232
336 338 240
337 339 265
347 348 290
368 370 323
382 382 360
425 418 411
450 436 448
475 458 497
502 475 545
529 491 586
543 503 630
555 503 680
571 509 730
584 521 780
592 522 826
619 528 886
665 553 965
730 596 1068
795 637 1170
865 681 1273
960 752 1407
1074 835 1580
1179 906 1751
1312 999 1951
1459 1105 2158
1615 1213 2387
1773 1327 2619
1891 1404 2789
2007 1494 2962
408 444 293
408 444 294
408 444 295
408 436 303
408 429 312
416 437 337
424 445 362
433 453 395
442 461 428
467 478 461
491 493 497
515 510 547
538 526 595
555 543 636
569 552 680
586 552 730
600 557 782
609 566 831
636 580 895
677 596 970
738 631 1068
813 681 1184
888 730 1297
963 780 1404
1069 854 1567
1185 937 1749
1320 1031 1951
1461 1131 2158
1616 1238 2387
1774 1345 2619
1892 1423 2790
2008 1498 2956
457 527 326
457 527 335
457 527 336
457 527 345
457 520 354
457 520 370
466 527 394
474 527 411
480 533 445
483 536 478
506 550 511
524 559 547
549 576 597
571 593 644
581 602 686
586 602 730
607 610 788
625 624 848
652 641 912
694 663 986
751 689 1076
821 731 1184
901 775 1306
980 821 1421
1085 896 1578
1201 979 1758
1331 1061 1954
1469 1156 2158
1625 1262 2387
1782 1370 2619
1901 1455 2797
2017 1531 2964
506 605 360
506 605 366
506 606 375
506 607 384
508 607 395
509 607 412
507 605 427
515 605 443
522 605 463
522 605 496
525 606 529
542 614 562
557 624 598
582 641 648
599 653 694
599 653 736
610 660 788
635 677 854
669 696 924
710 721 998
767 751 1090
834 784 1189
911 825 1308
994 866 1432
1100 934 1592
1216 1017 1766
1346 1101 1962
1479 1184 2161
1631 1287 2387
1789 1395 2619
1911 1480 2798
2027 1562 2972
547 663 393
547 663 393
547 664 400
547 672 417
549 673 428
566 673 453
565 671 468
557 663 477
563 663 495
563 663 521
566 663 554
575 664 587
585 672 620
590 682 656
611 699 702
624 711 744
632 715 794
651 726 854
685 743 921
727 763 990
784 793 1085
850 826 1189
928 870 1312
1011 916 1440
1112 970 1596
1225 1042 1766
1354 1131 1967
1487 1217 2169
1634 1315 2390
1789 1420 2619
1923 1504 2805
2043 1587 2981
586 725 422
586 725 424
586 725 424
584 730 439
585 738 456
601 739 480
614 738 505
607 729 514
600 723 524
600 723 549
603 725 579
611 725 612
616 724 641
616 732 674
624 742 711
640 759 752
659 773 802
675 782 860
706 799 929
748 815 995
802 838 1083
869 871 1191
944 914 1314
1027 964 1446
1129 1020 1604
1237 1077 1770
1360 1158 1965
1493 1249 2172
1642 1346 2398
1791 1445 2622
1921 1527 2803
2053 1610 2985
620 800 438
620 800 447
619 799 449
611 791 457
610 796 472
618 804 489
631 804 513
631 796 538
625 789 549
625 789 566
628 792 596
636 800 637
641 797 664
641 790 682
649 799 719
665 809 760
686 825 810
709 840 868
739 862 945
781 890 1028
832 907 1110
894 929 1208
966 968 1327
1044 1013 1455
1145 1069 1612
1253 1127 1778
1368 1199 1964
1493 1283 2164
1647 1374 2400
1800 1470 2630
1918 1546 2799
2045 1627 2977
658 877 460
653 872 463
653 872 472
646 866 482
640 859 492
649 868 508
657 876 528
658 870 554
656 859 574
655 858 590
658 861 612
666 869 654
669 871 688
669 863 705
679 865 735
695 873 776
708 875 819
733 892 877
770 917 953
811 951 1044
860 976 1136
919 993 1227
985 1024 1338
1060 1065 1462
1162 1116 1620
1270 1174 1786
1384 1243 1975
1500 1318 2165
1647 1404 2392
1805 1496 2632
1926 1571 2805
2042 1646 2971
708 960 493
691 943 485
686 938 489
686 938 505
682 934 516
690 942 533
698 951 553
707 959 586
706 951 608
697 934 616
699 936 637
708 944 670
710 946 706
702 938 730
713 940 761
737 956 810
745 952 847
750 941 885
788 967 962
836 1000 1053
883 1028 1144
935 1050 1235
999 1078 1343
1068 1115 1462
1174 1162 1624
1286 1216 1794
1401 1281 1987
1517 1351 2182
1655 1433 2394
1805 1520 2624
1931 1596 2802
2050 1671 2971
754 1043 526
744 1032 521
728 1016 514
725 1014 528
725 1014 544
731 1020 561
741 1028 579
751 1036 611
753 1039 638
744 1022 646
746 1016 667
755 1025 701
760 1027 728
752 1018 753
752 1018 786
777 1034 836
793 1041 883
793 1024 916
808 1020 967
858 1053 1058
905 1081 1149
954 1106 1240
1019 1137 1352
1085 1170 1468
1182 1212 1624
1298 1262 1798
1417 1325 1992
1533 1391 2191
1674 1475 2411
1815 1558 2626
1937 1630 2800
2062 1705 2974
796 1126 559
796 1126 559
786 1116 555
778 1107 564
775 1105 578
775 1105 594
783 1111 612
799 1119 637
803 1121 663
786 1105 671
787 1099 692
812 1115 742
818 1118 770
818 1110 786
817 1108 818
827 1117 860
843 1126 910
851 1124 958
860 1112 1000
883 1111 1058
927 1139 1149
971 1164 1240
1038 1195 1354
1110 1228 1476
1201 1267 1629
1306 1312 1798
1429 1375 1992
1550 1441 2191
1695 1529 2419
1840 1616 2643
1958 1684 2812
2078 1755 2982
848 1209 600
848 1209 603
847 1207 603
836 1196 605
830 1190 614
836 1192 631
836 1192 649
848 1199 674
863 1207 699
851 1195 710
837 1181 724
857 1195 770
876 1205 808
877 1197 824
877 1192 848
885 1201 889
893 1205 931
901 1205 981
911 1204 1034
927 1196 1084
956 1201 1156
997 1226 1247
1061 1256 1361
1136 1289 1486
1226 1329 1641
1325 1370 1807
1441 1428 1992
1565 1495 2191
1712 1579 2419
1861 1670 2651
1979 1738 2825
2095 1804 2991
914 1291 650
914 1291 658
913 1290 661
897 1274 653
888 1264 656
905 1273 672
910 1275 690
910 1275 715
921 1282 740
929 1290 765
919 1281 782
911 1272 807
926 1279 841
934 1279 857
935 1275 881
935 1275 914
943 1279 956
951 1279 998
959 1279 1052
969 1278 1109
996 1281 1180
1030 1292 1264
1095 1323 1378
1169 1356 1502
1256 1395 1658
1350 1437 1823
1463 1491 2003
1582 1552 2191
1728 1633 2419
1877 1720 2651
1995 1788 2829
2111 1854 2999
985 1383 699
985 1383 708
985 1383 716
976 1373 715
962 1360 710
976 1368 726
989 1375 743
989 1375 765
985 1371 784
987 1373 802
998 1381 830
994 1376 856
992 1374 884
1000 1375 903
1001 1371 920
1001 1371 952
1005 1371 989
1013 1371 1030
1022 1371 1077
1030 1371 1135
1041 1372 1200
1074 1380 1283
1128 1401 1390
1202 1435 1515
1285 1470 1666
1376 1511 1832
1488 1562 2019
1604 1620 2202
1749 1700 2423
1898 1783 2655
2008 1842 2833
2124 1908 3007
1059 1482 749
1059 1482 757
1059 1482 766
1059 1482 774
1053 1476 776
1061 1484 793
1072 1491 809
1072 1491 826
1068 1487 842
1051 1470 842
1056 1472 863
1072 1481 896
1075 1482 926
1083 1490 959
1084 1487 978
1076 1479 994
1080 1479 1030
1088 1479 1072
1096 1479 1118
1104 1479 1168
1113 1479 1231
1124 1480 1300
1174 1499 1405
1236 1526 1523
1316 1559 1672
1401 1594 1832
1513 1642 2025
1629 1694 2218
1774 1774 2437
1923 1857 2664
2026 1909 2841
2132 1966 3015
1148 1610 813
1148 1610 821
1148 1610 829
1148 1610 838
1148 1610 846
1153 1614 859
1159 1621 876
1159 1621 892
1161 1621 907
1153 1610 909
1141 1598 917
1154 1604 948
1164 1610 975
1171 1616 1005
1179 1621 1038
1173 1614 1057
1165 1605 1077
1172 1605 1118
1185 1605 1164
1193 1605 1214
1201 1605 1279
1210 1605 1345
1229 1608 1427
1287 1633 1543
1364 1664 1690
1446 1697 1847
1542 1739 2034
1658 1789 2233
1803 1858 2453
1953 1941 2677
2050 1998 2859
2150 2047 3033
1247 1759 887
1247 1759 896
1247 1759 904
1247 1759 912
1247 1759 921
1247 1759 929
1251 1762 942
1251 1762 958
1253 1762 973
1261 1762 981
1257 1756 992
1257 1756 1016
1263 1759 1041
1263 1759 1058
1270 1762 1088
1279 1762 1121
1272 1755 1144
1264 1746 1169
1276 1746 1214
1293 1746 1263
1301 1746 1329
1309 1746 1403
1323 1746 1481
1345 1749 1568
1422 1780 1715
1504 1813 1872
1594 1853 2057
1691 1897 2249
1836 1961 2470
1986 2032 2694
2080 2092 2879
2175 2147 3058
1357 1913 967
1352 1908 970
1352 1908 979
1352 1908 987
1353 1909 996
1357 1913 1009
1357 1913 1017
1357 1913 1030
1357 1913 1044
1362 1913 1053
1368 1913 1066
1368 1913 1091
1368 1910 1110
1368 1908 1124
1372 1912 1148
1380 1913 1181
1380 1909 1206
1372 1901 1230
1377 1902 1269
1394 1902 1318
1400 1897 1373
1409 1897 1448
1423 1897 1533
1439 1897 1616
1474 1901 1740
1557 1934 1897
1652 1969 2076
1743 2011 2267
1870 2068 2487
2019 2135 2710
2108 2178 2880
2200 2236 3062
1473 2071 1050
1465 2062 1050
1460 2057 1053
1460 2057 1061
1461 2058 1071
1469 2066 1087
1473 2071 1100
1473 2071 1108
1473 2071 1119
1473 2071 1127
1476 2071 1141
1476 2071 1166
1476 2067 1184
1476 2059 1192
1480 2061 1214
1488 2069 1247
1488 2066 1272
1480 2058 1289
1485 2059 1327
1502 2067 1376
1508 2063 1431
1508 2054 1489
1522 2054 1575
1539 2054 1666
1568 2054 1786
1607 2059 1922
1703 2092 2100
1801 2126 2283
1921 2182 2503
2052 2243 2727
2139 2278 2889
2224 2319 3054
1584 2228 1133
1587 2231 1144
1579 2223 1144
1579 2223 1147
1579 2223 1156
1583 2227 1168
1592 2235 1184
1601 2239 1197
1601 2239 1205
1601 2239 1213
1596 2234 1219
1589 2228 1234
1592 2231 1259
1595 2228 1273
1595 2223 1285
1601 2230 1314
1601 2230 1343
1593 2221 1361
1603 2227 1396
1621 2236 1446
1632 2239 1501
1633 2232 1559
1633 2218 1622
1649 2218 1714
1673 2223 1836
1706 2223 1969
1759 2239 2124
1858 2272 2307
1968 2310 2520
2092 2368 2743
2183 2408 2911
2266 2442 3068
1691 2386 1216
1700 2394 1232
1703 2397 1244
1703 2397 1244
1703 2397 1247
1703 2397 1255
1708 2401 1267
1725 2409 1284
1733 2414 1296
1733 2414 1304
1728 2408 1310
1712 2392 1310
1708 2389 1326
1717 2397 1351
1719 2397 1368
1719 2397 1384
1717 2395 1409
1709 2387 1434
1719 2393 1471
1744 2409 1521
1757 2414 1575
1765 2414 1633
1765 2400 1697
1765 2384 1763
1788 2390 1886
1814 2397 2018
1860 2411 2171
1916 2430 2332
2023 2463 2543
2134 2501 2760
2227 2543 2929
2316 2582 3093
1843 2586 1330
1845 2589 1334
1853 2596 1349
1853 2596 1349
1853 2596 1351
1853 2596 1359
1853 2596 1367
1860 2600 1379
1872 2606 1394
1872 2606 1402
1877 2611 1415
1875 2609 1426
1865 2599 1432
1870 2604 1454
1871 2602 1468
1869 2596 1480
1873 2600 1504
1869 2596 1531
1860 2588 1556
1879 2600 1601
1893 2606 1651
1902 2606 1708
1910 2606 1772
1911 2591 1838
1923 2586 1942
1948 2595 2074
1962 2591 2221
2012 2608 2378
2093 2633 2574
2201 2666 2790
2275 2694 2952
2366 2736 3118
2008 2802 1454
2008 2802 1454
2010 2804 1457
2010 2804 1457
2010 2804 1458
2010 2804 1467
2010 2804 1475
2010 2804 1483
2013 2805 1493
2013 2805 1501
2018 2810 1515
2035 2827 1540
2039 2831 1557
2039 2831 1573
2037 2825 1584
2029 2809 1584
2030 2808 1604
2039 2816 1637
2034 2812 1664
2026 2804 1689
2034 2805 1734
2043 2805 1784
2051 2805 1846
2059 2805 1913
2072 2802 2016
2089 2802 2132
2100 2797 2278
2111 2790 2428
2190 2814 2622
2276 2840 2823
2345 2865 2984
2416 2893 3143
2161 3011 1572
2161 3011 1572
2161 3010 1572
2161 3004 1572
2161 3004 1572
2161 3004 1574
2161 3004 1583
2161 3004 1591
2161 3004 1599
2161 3004 1607
2163 3007 1618
2176 3019 1639
2186 3030 1658
2186 3030 1671
2186 3030 1687
2181 3019 1693
2173 3007 1702
2176 3010 1730
2189 3018 1763
2187 3014 1790
2183 3011 1830
2190 3011 1880
2199 3011 1935
2207 3011 2001
2209 3005 2092
2224 3004 2207
2241 3011 2357
2249 3003 2506
2262 2983 2658
2345 3008 2857
2412 3033 3010
2479 3057 3168
2310 3218 1688
2310 3218 1688
2310 3217 1688
2310 3209 1688
2310 3203 1688
2310 3203 1688
2310 3203 1690
2310 3203 1699
2310 3203 1707
2310 3203 1715
2312 3206 1726
2321 3214 1743
2327 3220 1757
2327 3220 1765
2327 3220 1778
2327 3220 1795
2322 3214 1809
2314 3206 1826
2321 3209 1854
2338 3217 1887
2341 3218 1930
2341 3218 1979
2348 3218 2035
2356 3218 2093
2358 3212 2183
2358 3203 2282
2374 3210 2431
2390 3218 2589
2399 3195 2738
2411 3173 2890
2479 3198 3042
2545 3223 3193
2416 3367 1760
2416 3367 1760
2416 3367 1760
2416 3366 1760
