lut/Crisp_Warm.3DL
#Created by: Adobe Photoshop Export Color Lookup Plugin
#Description: -14b15759bd8c6a7d.jpg
0 33 66 99 132 165 198 231 264 297 330 363 396 429 462 495 528 561 594 627 660 693 726 759 792 825 858 891 924 957 990 1023
0 0 0
0 0 0
0 0 0
0 0 0
0 0 41
0 0 188
0 0 335
0 0 483
0 0 630
0 0 777
0 0 924
0 0 1071
0 0 1218
0 0 1365
0 0 1512
0 0 1659
0 0 1807
0 0 1954
0 0 2101
0 0 2248
0 0 2395
0 0 2542
0 0 2689
0 0 2837
0 0 2984
0 0 3131
0 0 3278
0 0 3425
0 0 3572
0 0 3719
0 0 3866
0 0 4014
0 0 0
0 0 0
0 0 0
0 0 0
0 0 41
0 0 188
0 0 335
0 0 483
0 0 630
0 0 777
0 0 924
0 0 1071
0 0 1218
0 0 1365
0 0 1512
0 0 1659
0 0 1807
0 0 1954
0 0 2101
0 0 2248
0 0 2395
0 0 2542
0 0 2689
0 0 2837
0 0 2984
0 0 3131
0 0 3278
0 0 3425
0 0 3572
0 0 3719
0 0 3866
0 0 4014
0 0 0
0 0 0
0 0 0
0 0 0
0 0 41
0 0 188
0 0 335
0 0 483
0 0 630
0 0 777
0 0 924
0 0 1071
0 0 1218
0 0 1365
0 0 1512
0 0 1659
0 0 1807
0 0 1954
0 0 2101
0 0 2248
0 0 2395
0 0 2542
0 0 2689
0 0 2837
0 0 2984
0 0 3131
0 0 3278
0 0 3425
0 0 3572
0 0 3719
0 0 3866
0 0 4014
0 0 0
0 0 0
0 0 0
0 0 0
0 0 41
0 0 188
0 0 335
0 0 483
0 0 630
0 0 777
0 0 924
0 0 1071
0 0 1218
0 0 1365
0 0 1512
0 0 1659
0 0 1807
0 0 1954
0 0 2101
0 0 2248
0 0 2395
0 0 2542
0 0 2689
0 0 2837
0 0 2984
0 0 3131
0 0 3278
0 0 3425
0 0 3572
0 0 3719
0 0 3866
0 0 4014
0 47 0
0 47 0
0 47 0
0 47 0
0 47 41
0 47 188
0 47 335
0 47 483
0 47 630
0 47 777
0 47 924
0 47 1071
0 47 1218
0 47 1365
0 47 1512
0 47 1659
0 47 1807
0 47 1954
0 47 2101
0 47 2248
0 47 2395
0 47 2542
0 47 2689
0 47 2837
0 47 2984
0 47 3131
0 47 3278
0 47 3425
0 47 3572
0 47 3719
0 47 3866
0 47 4014
0 215 0
0 215 0
0 215 0
0 215 0
0 215 41
0 215 188
0 215 335
0 215 483
0 215 630
0 215 777
0 215 924
0 215 1071
0 215 1218
0 215 1365
0 215 1512
0 215 1659
0 215 1807
0 215 1954
0 215 2101
0 215 2248
0 215 2395
0 215 2542
0 215 2689
0 215 2837
0 215 2984
0 215 3131
0 215 3278
0 215 3425
0 215 3572
0 215 3719
0 215 3866
0 215 4014
0 382 0
0 382 0
0 382 0
0 382 0
0 382 41
0 382 188
0 382 335
0 382 483
0 382 630
0 382 777
0 382 924
0 382 1071
0 382 1218
0 382 1365
0 382 1512
0 382 1659
0 382 1807
0 382 1954
0 382 2101
0 382 2248
0 382 2395
0 382 2542
0 382 2689
0 382 2837
0 382 2984
0 382 3131
0 382 3278
0 382 3425
0 382 3572
0 382 3719
0 382 3866
0 382 4014
0 550 0
0 550 0
0 550 0
0 550 0
0 550 41
0 550 188
0 550 335
0 550 483
0 550 630
0 550 777
0 550 924
0 550 1071
0 550 1218
0 550 1365
0 550 1512
0 550 1659
0 550 1807
0 550 1954
0 550 2101
0 550 2248
0 550 2395
0 550 2542
0 550 2689
0 550 2837
0 550 2984
0 550 3131
0 550 3278
0 550 3425
0 550 3572
0 550 3719
0 550 3866
0 550 4014
0 717 0
0 717 0
0 717 0
0 717 0
0 717 41
0 717 188
0 717 335
0 717 483
0 717 630
0 717 777
0 717 924
0 717 1071
0 717 1218
0 717 1365
0 717 1512
0 717 1659
0 717 1807
0 717 1954
0 717 2101
0 717 2248
0 717 2395
0 717 2542
0 717 2689
0 717 2837
0 717 2984
0 717 3131
0 717 3278
0 717 3425
0 717 3572
0 717 3719
0 717 3866
0 717 4014
0 885 0
0 885 0
0 885 0
0 885 0
0 885 41
0 885 188
0 885 335
0 885 483
0 885 630
0 885 777
0 885 924
0 885 1071
0 885 1218
0 885 1365
0 885 1512
0 885 1659
0 885 1807
0 885 1954
0 885 2101
0 885 2248
0 885 2395
0 885 2542
0 885 2689
0 885 2837
0 885 2984
0 885 3131
0 885 3278
0 885 3425
0 885 3572
0 885 3719
0 885 3866
0 885 4014
0 1053 0
0 1053 0
0 1053 0
0 1053 0
0 1053 41
0 1053 188
0 1053 335
0 1053 483
0 1053 630
0 1053 777
0 1053 924
0 1053 1071
0 1053 1218
0 1053 1365
0 1053 1512
0 1053 1659
0 1053 1807
0 1053 1954
0 1053 2101
0 1053 2248
0 1053 2395
0 1053 2542
0 1053 2689
0 1053 2837
0 1053 2984
0 1053 3131
0 1053 3278
0 1053 3425
0 1053 3572
0 1053 3719
0 1053 3866
0 1053 4014
0 1220 0
0 1220 0
0 1220 0
0 1220 0
0 1220 41
0 1220 188
0 1220 335
0 1220 483
0 1220 630
0 1220 777
0 1220 924
0 1220 1071
0 1220 1218
0 1220 1365
0 1220 1512
0 1220 1659
0 1220 1807
0 1220 1954
0 1220 2101
0 1220 2248
0 1220 2395
0 1220 2542
0 1220 2689
0 1220 2837
0 1220 2984
0 1220 3131
0 1220 3278
0 1220 3425
0 1220 3572
0 1220 3719
0 1220 3866
0 1220 4014
0 1388 0
0 1388 0
0 1388 0
0 1388 0
0 1388 41
0 1388 188
0 1388 335
0 1388 483
0 1388 630
0 1388 777
0 1388 924
0 1388 1071
0 1388 1218
0 1388 1365
0 1388 1512
0 1388 1659
0 1388 1807
0 1388 1954
0 1388 2101
0 1388 2248
0 1388 2395
0 1388 2542
0 1388 2689
0 1388 2837
0 1388 2984
0 1388 3131
0 1388 3278
0 1388 3425
0 1388 3572
0 1388 3719
0 1388 3866
0 1388 4014
0 1555 0
0 1555 0
0 1555 0
0 1555 0
0 1555 41
0 1555 188
0 1555 335
0 1555 483
0 1555 630
0 1555 777
0 1555 924
0 1555 1071
0 1555 1218
0 1555 1365
0 1555 1512
0 1555 1659
0 1555 1807
0 1555 1954
0 1555 2101
0 1555 2248
0 1555 2395
0 1555 2542
0 1555 2689
0 1555 2837
0 1555 2984
0 1555 3131
0 1555 3278
0 1555 3425
0 1555 3572
0 1555 3719
0 1555 3866
0 1555 4014
0 1723 0
0 1723 0
0 1723 0
0 1723 0
0 1723 41
0 1723 188
0 1723 335
0 1723 483
0 1723 630
0 1723 777
0 1723 924
0 1723 1071
0 1723 1218
0 1723 1365
0 1723 1512
0 1723 1659
0 1723 1807
0 1723 1954
0 1723 2101
0 1723 2248
0 1723 2395
0 1723 2542
0 1723 2689
0 1723 2837
0 1723 2984
0 1723 3131
0 1723 3278
0 1723 3425
0 1723 3572
0 1723 3719
0 1723 3866
0 1723 4014
0 1891 0
0 1891 0
0 1891 0
0 1891 0
0 1891 41
0 1891 188
0 1891 335
0 1891 483
0 1891 630
0 1891 777
0 1891 924
0 1891 1071
0 1891 1218
0 1891 1365
0 1891 1512
0 1891 1659
0 1891 1807
0 1891 1954
0 1891 2101
0 1891 2248
0 1891 2395
0 1891 2542
0 1891 2689
0 1891 2837
0 1891 2984
0 1891 3131
0 1891 3278
0 1891 3425
0 1891 3572
0 1891 3719
0 1891 3866
0 1891 4014
0 2058 0
0 2058 0
0 2058 0
0 2058 0
0 2058 41
0 2058 188
0 2058 335
0 2058 483
0 2058 630
0 2058 777
0 2058 924
0 2058 1071
0 2058 1218
0 2058 1365
0 2058 1512
0 2058 1659
0 2058 1807
0 2058 1954
0 2058 2101
0 2058 2248
0 2058 2395
0 2058 2542
0 2058 2689
0 2058 2837
0 2058 2984
0 2058 3131
0 2058 3278
0 2058 3425
0 2058 3572
0 2058 3719
0 2058 3866
0 2058 4014
0 2226 0
0 2226 0
0 2226 0
0 2226 0
0 2226 41
0 2226 188
0 2226 335
0 2226 483
0 2226 630
0 2226 777
0 2226 924
0 2226 1071
0 2226 1218
0 2226 1365
0 2226 1512
0 2226 1659
0 2226 1807
0 2226 1954
0 2226 2101
0 2226 2248
0 2226 2395
0 2226 2542
0 2226 2689
0 2226 2837
0 2226 2984
0 2226 3131
0 2226 3278
0 2226 3425
0 2226 3572
0 2226 3719
0 2226 3866
0 2226 4014
0 2394 0
0 2394 0
0 2394 0
0 2394 0
0 2394 41
0 2394 188
0 2394 335
0 2394 483
0 2394 630
0 2394 777
0 2394 924
0 2394 1071
0 2394 1218
0 2394 1365
0 2394 1512
0 2394 1659
0 2394 1807
0 2394 1954
0 2394 2101
0 2394 2248
0 2394 2395
0 2394 2542
0 2394 2689
0 2394 2837
0 2394 2984
0 2394 3131
0 2394 3278
0 2394 3425
0 2394 3572
0 2394 3719
0 2394 3866
0 2394 4014
0 2561 0
0 2561 0
0 2561 0
0 2561 0
0 2561 41
0 2561 188
0 2561 335
0 2561 483
0 2561 630
0 2561 777
0 2561 924
0 2561 1071
0 2561 1218
0 2561 1365
0 2561 1512
0 2561 1659
0 2561 1807
0 2561 1954
0 2561 2101
0 2561 2248
0 2561 2395
0 2561 2542
0 2561 2689
0 2561 2837
0 2561 2984
0 2561 3131
0 2561 3278
0 2561 3425
0 2561 3572
0 2561 3719
0 2561 3866
0 2561 4014
0 2729 0
0 2729 0
0 2729 0
0 2729 0
0 2729 41
0 2729 188
0 2729 335
0 2729 483
0 2729 630
0 2729 777
0 2729 924
0 2729 1071
0 2729 1218
0 2729 1365
0 2729 1512
0 2729 1659
0 2729 1807
0 2729 1954
0 2729 2101
0 2729 2248
0 2729 2395
0 2729 2542
0 2729 2689
0 2729 2837
0 2729 2984
0 2729 3131
0 2729 3278
0 2729 3425
0 2729 3572
0 2729 3719
0 2729 3866
0 2729 4014
0 2897 0
0 2897 0
0 2897 0
0 2897 0
0 2897 41
0 2897 188
0 2897 335
0 2897 483
0 2897 630
0 2897 777
0 2897 924
0 2897 1071
0 2897 1218
0 2897 1365
0 2897 1512
0 2897 1659
0 2897 1807
0 2897 1954
0 2897 2101
0 2897 2248
0 2897 2395
0 2897 2542
0 2897 2689
0 2897 2837
0 2897 2984
0 2897 3131
0 2897 3278
0 2897 3425
0 2897 3572
0 2897 3719
0 2897 3866
0 2897 4014
0 3064 0
0 3064 0
0 3064 0
0 3064 0
0 3064 41
0 3064 188
0 3064 335
0 3064 483
0 3064 630
0 3064 777
0 3064 924
0 3064 1071
0 3064 1218
0 3064 1365
0 3064 1512
0 3064 1659
0 3064 1807
0 3064 1954
0 3064 2101
0 3064 2248
0 3064 2395
0 3064 2542
0 3064 2689
0 3064 2837
0 3064 2984
0 3064 3131
0 3064 3278
0 3064 3425
0 3064 3572
0 3064 3719
0 3064 3866
0 3064 4014
0 3232 0
0 3232 0
0 3232 0
0 3232 0
0 3232 41
0 3232 188
0 3232 335
0 3232 483
0 3232 630
0 3232 777
0 3232 924
0 3232 1071
0 3232 1218
0 3232 1365
0 3232 1512
0 3232 1659
0 3232 1807
0 3232 1954
0 3232 2101
0 3232 2248
0 3232 2395
0 3232 2542
0 3232 2689
0 3232 2837
0 3232 2984
0 3232 3131
0 3232 3278
0 3232 3425
0 3232 3572
0 3232 3719
0 3232 3866
0 3232 4014
0 3400 0
0 3400 0
0 3400 0
0 3400 0
0 3400 41
0 3400 188
0 3400 335
0 3400 483
0 3400 630
0 3400 777
0 3400 924
0 3400 1071
0 3400 1218
0 3400 1365
0 3400 1512
0 3400 1659
0 3400 1807
0 3400 1954
0 3400 2101
0 3400 2248
0 3400 2395
0 3400 2542
0 3400 2689
0 3400 2837
0 3400 2984
0 3400 3131
0 3400 3278
0 3400 3425
0 3400 3572
0 3400 3719
0 3400 3866
0 3400 4014
0 3567 0
0 3567 0
0 3567 0
0 3567 0
0 3567 41
0 3567 188
0 3567 335
0 3567 483
0 3567 630
0 3567 777
0 3567 924
0 3567 1071
0 3567 1218
0 3567 1365
0 3567 1512
0 3567 1659
0 3567 1807
0 3567 1954
0 3567 2101
0 3567 2248
0 3567 2395
0 3567 2542
0 3567 2689
0 3567 2837
0 3567 2984
0 3567 3131
0 3567 3278
0 3567 3425
0 3567 3572
0 3567 3719
0 3567 3866
0 3567 4014
0 3735 0
0 3735 0
0 3735 0
0 3735 0
0 3735 41
0 3735 188
0 3735 335
0 3735 483
0 3735 630
0 3735 777
0 3735 924
0 3735 1071
0 3735 1218
0 3735 1365
0 3735 1512
0 3735 1659
0 3735 1807
0 3735 1954
0 3735 2101
0 3735 2248
0 3735 2395
0 3735 2542
0 3735 2689
0 3735 2837
0 3735 2984
0 3735 3131
0 3735 3278
0 3735 3425
0 3735 3572
0 3735 3719
0 3735 3866
0 3735 4014
0 3902 0
0 3902 0
0 3902 0
0 3902 0
0 3902 41
0 3902 188
0 3902 335
0 3902 483
0 3902 630
0 3902 777
0 3902 924
0 3902 1071
0 3902 1218
0 3902 1365
0 3902 1512
0 3902 1659
0 3902 1807
0 3902 1954
0 3902 2101
0 3902 2248
0 3902 2395
0 3902 2542
0 3902 2689
0 3902 2837
0 3902 2984
0 3902 3131
0 3902 3278
0 3902 3425
0 3902 3572
0 3902 3719
0 3902 3866
0 3902 4014
0 4070 0
0 4070 0
0 4070 0
0 4070 0
