lut/FallColors.3DL
#Created by: Adobe Photoshop Export Color Lookup Plugin
#Description: -14b15759bd8c6a7d.jpg
0 33 66 99 132 165 198 231 264 297 330 363 396 429 462 495 528 561 594 627 660 693 726 759 792 825 858 891 924 957 990 1023
150 100 64
191 148 227
231 197 391
234 200 508
234 200 621
234 200 737
234 200 852
234 200 969
234 200 1086
234 200 1204
234 200 1322
234 200 1441
234 200 1560
234 200 1680
234 200 1800
234 200 1921
234 200 2042
233 200 2163
233 200 2285
233 200 2407
233 200 2529
233 200 2652
233 200 2775
233 200 2898
233 200 3021
233 200 3145
233 200 3269
233 199 3393
233 199 3517
233 199 3641
233 199 3766
233 199 3890
301 272 193
201 268 228
241 316 392
235 319 508
234 319 621
234 319 736
234 319 852
234 318 969
234 318 1086
234 318 1204
234 318 1322
234 318 1441
234 318 1560
233 318 1680
233 318 1800
233 318 1921
233 318 2042
233 318 2163
233 318 2285
233 318 2407
233 318 2529
233 318 2652
233 318 2774
233 318 2897
233 318 3021
233 318 3144
233 318 3268
233 318 3393
233 318 3517
233 318 3641
233 318 3765
233 318 3890
451 445 322
351 440 357
252 436 392
245 438 508
234 437 621
234 437 736
234 437 852
234 437 969
233 437 1085
233 437 1203
233 437 1322
233 437 1441
233 437 1560
233 437 1680
233 437 1800
233 437 1921
233 437 2042
233 437 2163
233 437 2285
233 437 2407
233 437 2529
233 436 2652
233 436 2774
233 436 2897
233 436 3021
233 436 3144
233 436 3268
233 436 3392
233 436 3516
233 436 3640
233 436 3765
233 436 3890
500 528 360
500 533 401
400 529 437
245 557 508
235 556 621
233 556 736
233 556 852
233 555 968
233 555 1085
233 555 1203
233 555 1322
233 555 1441
233 555 1560
233 555 1680
233 555 1800
233 555 1920
233 555 2042
233 555 2163
233 555 2285
233 555 2407
233 555 2529
233 555 2651
233 555 2774
233 555 2897
233 555 3021
233 555 3144
233 555 3268
233 555 3392
233 555 3517
233 555 3641
232 555 3765
232 555 3890
541 605 391
548 611 433
548 616 475
393 644 547
235 674 621
233 674 736
233 674 851
233 674 968
233 674 1085
233 674 1203
233 674 1321
233 674 1440
233 674 1560
233 674 1680
233 674 1800
233 674 1920
233 674 2041
233 674 2163
233 674 2284
233 674 2406
233 674 2529
233 674 2651
233 674 2774
233 674 2897
233 674 3020
233 674 3144
232 674 3268
232 674 3392
232 673 3516
232 673 3641
232 673 3765
232 673 3889
582 681 422
589 687 464
596 694 507
526 723 552
367 753 626
233 793 736
233 793 851
233 793 968
233 793 1085
233 793 1203
233 793 1321
233 793 1440
233 793 1559
233 793 1679
233 793 1800
233 793 1920
233 793 2041
233 793 2163
233 793 2284
233 793 2406
233 793 2529
232 793 2651
232 792 2774
232 792 2897
232 792 3020
232 792 3144
232 792 3268
232 792 3392
232 792 3516
232 792 3640
232 792 3765
232 792 3890
623 758 453
630 764 496
638 770 538
573 800 581
497 831 626
363 871 736
233 912 851
233 912 968
233 912 1085
233 912 1203
233 912 1321
233 912 1440
233 912 1559
233 912 1679
232 912 1799
232 912 1920
232 911 2041
232 911 2162
232 912 2284
232 912 2406
232 911 2528
232 911 2651
232 911 2774
232 911 2897
232 911 3020
232 911 3143
232 911 3267
232 911 3391
232 911 3516
232 911 3640
232 911 3765
232 911 3890
664 835 485
671 841 527
679 847 569
654 866 610
584 897 653
468 950 724
338 991 839
233 1031 968
233 1031 1085
233 1031 1203
232 1031 1321
232 1031 1440
232 1031 1559
232 1030 1679
232 1030 1799
232 1030 1920
232 1030 2041
232 1030 2162
232 1030 2284
232 1030 2406
232 1030 2528
232 1030 2651
232 1030 2774
232 1030 2897
232 1030 3020
232 1030 3143
232 1030 3267
232 1030 3391
232 1030 3516
232 1030 3640
232 1030 3765
232 1030 3890
705 912 516
713 918 558
720 924 600
702 942 641
676 961 681
560 1015 749
437 1071 824
331 1111 952
232 1150 1084
232 1150 1202
232 1150 1321
232 1150 1440
232 1150 1559
232 1150 1679
232 1149 1799
232 1149 1920
232 1149 2041
232 1149 2162
232 1149 2284
232 1149 2406
232 1149 2528
232 1149 2650
232 1149 2774
232 1149 2897
232 1149 3020
232 1149 3143
232 1149 3267
232 1149 3391
232 1149 3515
232 1149 3640
232 1149 3765
232 1149 3889
746 989 547
754 995 589
761 1001 632
763 1010 675
744 1028 715
660 1077 764
537 1134 836
412 1195 934
313 1234 1066
232 1269 1202
232 1269 1321
232 1269 1440
232 1269 1559
232 1269 1679
232 1269 1799
232 1269 1919
232 1268 2041
232 1268 2162
232 1268 2284
232 1268 2406
232 1268 2528
232 1268 2650
232 1268 2773
232 1268 2896
232 1268 3020
232 1268 3143
232 1268 3267
231 1268 3391
231 1268 3515
231 1268 3640
231 1268 3764
231 1268 3889
788 1066 578
795 1072 621
802 1078 663
810 1085 707
812 1093 749
733 1141 795
640 1195 846
513 1257 942
388 1319 1047
307 1354 1183
232 1388 1320
232 1388 1439
232 1388 1559
232 1388 1678
232 1388 1799
232 1388 1919
232 1388 2040
232 1388 2162
232 1388 2283
232 1387 2405
232 1387 2528
231 1387 2650
231 1387 2773
231 1387 2896
231 1387 3020
231 1387 3143
231 1387 3267
231 1387 3390
231 1387 3515
231 1387 3639
231 1387 3764
231 1387 3889
829 1143 610
836 1149 652
844 1155 694
851 1162 738
859 1168 781
812 1203 824
723 1256 871
622 1315 941
494 1379 1044
362 1447 1166
287 1481 1303
232 1507 1439
232 1507 1558
232 1507 1678
232 1507 1799
232 1507 1919
232 1507 2040
231 1507 2162
231 1507 2283
231 1507 2405
231 1507 2527
231 1507 2650
231 1506 2773
231 1506 2896
231 1506 3019
231 1506 3143
231 1506 3267
231 1506 3390
231 1506 3515
231 1506 3639
231 1506 3764
231 1506 3889
870 1220 641
878 1226 683
885 1232 726
892 1239 769
900 1245 813
861 1277 854
807 1316 896
709 1375 962
606 1436 1037
469 1507 1159
333 1577 1288
277 1603 1423
232 1626 1558
231 1626 1678
231 1626 1798
231 1626 1919
231 1626 2040
231 1626 2161
231 1626 2283
231 1626 2405
231 1626 2527
231 1626 2650
231 1626 2773
231 1626 2896
231 1626 3019
231 1625 3142
231 1625 3267
231 1625 3390
231 1625 3515
231 1625 3639
231 1625 3764
231 1625 3888
911 1297 672
919 1304 715
926 1310 757
934 1316 801
941 1322 844
935 1336 887
889 1372 928
794 1435 980
694 1496 1051
582 1562 1144
442 1636 1272
301 1711 1415
255 1733 1550
231 1745 1678
231 1745 1798
231 1745 1919
231 1745 2040
231 1745 2161
231 1745 2283
231 1745 2405
231 1745 2527
231 1745 2650
231 1745 2772
231 1745 2896
231 1745 3019
231 1745 3142
231 1745 3266
231 1745 3390
231 1745 3515
231 1745 3639
231 1744 3763
231 1744 3888
953 1375 704
960 1381 746
967 1387 789
975 1393 832
983 1399 876
990 1406 920
984 1420 963
887 1486 1011
779 1556 1065
671 1622 1153
556 1690 1251
408 1770 1395
263 1848 1546
240 1860 1674
231 1864 1798
231 1864 1919
231 1864 2040
231 1864 2161
231 1864 2283
231 1864 2405
231 1864 2527
231 1864 2650
231 1864 2772
231 1864 2895
231 1864 3019
231 1864 3142
231 1864 3266
231 1864 3390
231 1864 3514
231 1864 3638
230 1864 3763
230 1864 3888
994 1452 735
1001 1458 778
1009 1464 820
1016 1470 863
1024 1476 907
1032 1483 951
1039 1489 996
974 1539 1040
864 1612 1090
766 1678 1160
655 1745 1254
529 1821 1366
377 1903 1518
243 1977 1673
235 1981 1796
231 1983 1918
231 1983 2040
231 1983 2161
231 1983 2283
231 1983 2405
231 1983 2527
231 1983 2649
231 1983 2772
231 1983 2895
230 1983 3018
230 1983 3142
230 1983 3266
230 1983 3390
230 1983 3514
230 1983 3638
230 1983 3763
230 1983 3888
1035 1529 767
1043 1535 809
1050 1541 851
1058 1547 895
1065 1554 938
1073 1560 983
1081 1566 1027
1026 1611 1070
945 1671 1114
851 1735 1179
759 1796 1255
636 1872 1362
504 1951 1482
362 2030 1638
235 2101 1796
231 2103 1918
231 2103 2039
231 2103 2161
231 2103 2282
231 2103 2404
230 2103 2527
230 2103 2649
230 2103 2772
230 2103 2895
230 2103 3018
230 2103 3141
230 2102 3266
230 2102 3390
230 2102 3514
230 2102 3638
230 2102 3763
230 2102 3887
1077 1606 798
1084 1612 840
1091 1618 883
1099 1625 926
1106 1631 970
1114 1637 1014
1122 1644 1058
1091 1674 1101
1021 1729 1143
929 1795 1200
842 1856 1271
741 1922 1358
612 2001 1473
484 2080 1600
348 2156 1760
230 2222 1918
230 2222 2039
230 2222 2160
230 2222 2282
230 2222 2404
230 2222 2527
230 2222 2649
230 2222 2772
230 2222 2895
230 2222 3018
230 2222 3141
230 2222 3265
230 2222 3389
230 2222 3514
230 2222 3638
230 2222 3763
230 2222 3887
1118 1683 829
1125 1689 872
1133 1695 914
1140 1702 958
1148 1708 1001
1156 1714 1045
1163 1721 1090
1150 1741 1132
1113 1775 1175
1017 1846 1227
916 1918 1287
822 1983 1369
718 2052 1463
591 2130 1586
463 2209 1720
338 2279 1880
230 2341 2039
230 2341 2160
230 2341 2282
230 2341 2404
230 2341 2526
230 2341 2649
230 2341 2772
230 2341 2895
230 2341 3018
230 2341 3141
230 2341 3265
230 2341 3389
230 2341 3514
230 2341 3638
230 2341 3763
230 2341 3888
1159 1761 861
1167 1767 903
1174 1773 946
1182 1779 989
1189 1785 1032
1197 1792 1077
1205 1798 1121
1202 1811 1165
1183 1835 1207
1104 1897 1255
999 1974 1311
905 2041 1382
808 2107 1470
695 2182 1573
569 2260 1703
443 2338 1842
327 2405 2003
230 2461 2160
230 2461 2282
230 2461 2404
230 2461 2526
230 2461 2649
230 2461 2771
230 2461 2894
230 2461 3018
230 2461 3141
230 2461 3265
230 2460 3389
230 2460 3513
230 2460 3638
230 2460 3763
229 2460 3888
1201 1838 892
1208 1844 935
1215 1850 977
1223 1856 1020
1231 1863 1064
1238 1869 1108
1246 1875 1153
1254 1882 1197
1251 1895 1241
1176 1956 1285
1077 2031 1333
988 2097 1400
903 2158 1476
792 2233 1575
671 2314 1685
543 2393 1822
416 2472 1968
313 2532 2127
230 2580 2282
230 2580 2404
230 2580 2526
230 2580 2648
230 2580 2771
230 2580 2894
230 2580 3018
230 2580 3141
230 2580 3265
229 2580 3389
229 2580 3513
229 2580 3638
229 2580 3762
229 2580 3887
1242 1915 924
1249 1921 966
1257 1927 1008
1264 1934 1052
1272 1940 1095
1280 1946 1140
1287 1953 1184
1295 1959 1229
1303 1966 1274
1251 2012 1317
1155 2086 1362
1063 2156 1421
983 2216 1492
889 2284 1577
769 2364 1683
645 2446 1802
516 2527 1946
390 2605 2095
301 2657 2252
230 2699 2403
230 2699 2526
229 2699 2648
229 2699 2771
229 2699 2894
229 2699 3018
229 2699 3141
229 2699 3265
229 2699 3388
229 2699 3513
229 2699 3637
229 2699 3762
229 2699 3887
1283 1992 955
1291 1998 997
1298 2004 1040
1306 2011 1083
1313 2017 1127
1321 2024 1171
1329 2030 1215
1337 2036 1260
1344 2043 1305
1311 2078 1348
1243 2135 1391
1145 2210 1445
1052 2281 1509
967 2344 1589
870 2413 1680
746 2496 1794
618 2580 1920
486 2663 2070
357 2743 2228
281 2788 2381
229 2819 2526
229 2819 2648
229 2819 2771
229 2819 2894
229 2819 3017
229 2819 3141
229 2819 3264
229 2819 3388
229 2819 3513
229 2819 3637
229 2819 3762
229 2818 3887
1324 2069 986
1332 2076 1029
1339 2082 1071
1347 2088 1115
1355 2094 1158
1362 2101 1202
1370 2107 1247
1378 2114 1292
1386 2120 1337
1367 2145 1380
1317 2190 1422
1230 2261 1472
1131 2337 1532
1041 2405 1604
952 2470 1690
848 2544 1789
721 2629 1910
593 2714 2042
457 2799 2200
326 2881 2361
271 2914 2507
229 2938 2648
229 2938 2771
229 2938 2894
229 2938 3017
229 2938 3141
229 2938 3264
229 2938 3388
229 2938 3512
229 2938 3637
229 2938 3762
229 2938 3887
1366 2147 1018
1373 2153 1060
1381 2159 1102
1388 2165 1146
1396 2172 1190
1404 2178 1234
1412 2184 1278
1419 2191 1323
1427 2197 1368
1434 2205 1413
1414 2230 1457
1318 2308 1502
1207 2394 1554
1120 2462 1622
1038 2525 1699
939 2596 1792
825 2676 1898
699 2760 2025
573 2844 2162
429 2934 2327
287 3023 2499
244 3049 2640
229 3058 2770
229 3058 2893
229 3058 3017
229 3058 3141
229 3058 3265
229 3058 3388
229 3058 3512
229 3058 3637
229 3058 3761
229 3058 3886
1407 2224 1049
1415 2230 1092
1422 2236 1134
1430 2243 1177
1437 2249 1221
1445 2255 1265
1453 2262 1310
1461 2268 1355
1469 2275 1400
1475 2282 1445
1481 2290 1490
1412 2350 1536
1294 2443 1583
1195 2520 1643
1116 2582 1716
1027 2650 1800
918 2727 1900
803 2808 2012
679 2891 2144
549 2977 2286
393 3075 2463
257 3160 2634
241 3170 2765
229 3177 2893
229 3177 3017
229 3177 3140
229 3177 3264
229 3177 3388
229 3177 3512
229 3177 3636
228 3177 3761
228 3177 3886
1449 2301 1081
1456 2307 1123
1463 2314 1165
1471 2320 1209
1479 2326 1252
1486 2332 1297
1494 2339 1341
1502 2345 1386
1510 2352 1431
1518 2358 1476
1525 2366 1522
1475 2413 1565
1378 2492 1609
1274 2575 1666
1185 2645 1733
1105 2708 1811
1015 2776 1901
900 2857 2007
778 2942 2126
655 3025 2262
526 3109 2411
372 3206 2589
240 3290 2764
229 3297 2893
229 3297 3017
228 3297 3140
228 3297 3264
228 3297 3388
228 3297 3513
228 3297 3637
228 3297 3761
228 3297 3886
1490 2378 1112
1497 2385 1154
1505 2391 1197
1512 2397 1240
1520 2403 1284
1528 2409 1328
1535 2416 1372
1543 2422 1417
1551 2429 1462
1559 2435 1508
1567 2442 1553
1525 2484 1597
1447 2551 1639
1357 2625 1692
1262 2701 1755
1175 2770 1828
1094 2833 1912
997 2905 2007
876 2991 2121
753 3076 2245
632 3158 2386
504 3242 2538
354 3337 2719
228 3416 2893
228 3416 3016
228 3416 3140
228 3416 3264
228 3416 3388
228 3416 3512
228 3416 3637
228 3416 3761
228 3416 3886
1531 2456 1144
1539 2462 1186
1546 2468 1228
1554 2474 1272
