lut/Fuji ETERNA 250D Fuji 3510 (by Adobe).3DL
#Created by: Adobe Photoshop Export Color Lookup Plugin
#Description: -14b15759bd8c6a7d.jpg
0 33 66 99 132 165 198 231 264 297 330 363 396 429 462 495 528 561 594 627 660 693 726 759 792 825 858 891 924 957 990 1023
86 45 45
84 47 63
80 50 111
74 55 193
65 57 344
57 56 504
51 50 669
48 43 792
47 33 906
48 20 1023
55 9 1140
64 0 1251
77 0 1327
91 0 1401
108 0 1473
129 0 1541
151 0 1609
173 0 1676
209 0 1749
253 0 1822
309 0 1896
362 0 1949
413 0 1997
461 0 2045
511 0 2091
560 0 2137
610 0 2182
661 0 2230
712 0 2278
766 0 2327
821 0 2375
877 0 2423
90 60 48
87 56 58
84 59 85
79 62 142
72 66 228
63 68 371
55 68 515
47 65 666
42 59 785
39 51 900
38 40 1019
42 29 1137
47 16 1255
58 9 1337
72 4 1416
86 0 1494
106 0 1566
127 0 1636
148 0 1709
182 0 1783
222 0 1858
279 0 1939
334 0 1996
390 0 2050
443 0 2103
494 0 2153
548 0 2205
602 0 2255
655 0 2306
710 0 2358
767 0 2409
824 0 2459
96 103 53
92 87 63
87 84 85
83 87 122
74 91 202
64 96 303
53 99 436
40 101 582
31 98 722
26 94 837
24 87 954
21 77 1074
24 64 1199
27 51 1310
37 39 1397
45 32 1477
54 25 1555
73 25 1629
93 21 1704
114 16 1779
144 15 1855
191 10 1939
251 8 2017
310 7 2076
373 6 2132
428 6 2187
485 6 2242
544 7 2296
600 7 2350
658 9 2403
717 11 2457
776 11 2510
103 180 60
99 149 71
93 135 94
85 134 130
74 138 207
61 143 305
44 150 434
26 154 581
11 156 723
4 155 843
2 150 961
2 144 1080
2 135 1206
2 124 1320
3 113 1423
3 103 1506
6 93 1586
10 82 1664
29 72 1741
48 62 1818
69 50 1896
110 39 1981
161 30 2061
225 24 2130
293 21 2189
360 20 2246
423 20 2302
485 21 2358
547 23 2413
610 27 2468
671 31 2524
733 37 2579
96 279 64
94 248 79
86 231 105
76 231 145
57 238 224
41 245 323
20 256 453
17 267 601
5 272 747
2 274 874
0 274 994
0 271 1113
0 268 1241
0 262 1365
0 254 1475
0 248 1559
0 241 1641
2 232 1721
3 226 1799
14 217 1876
24 208 1954
27 200 2036
61 191 2120
99 186 2195
178 186 2254
253 186 2311
332 188 2366
408 191 2420
476 194 2475
549 199 2529
617 205 2583
682 211 2637
83 384 66
81 352 84
72 335 114
59 334 157
41 341 239
28 352 340
5 366 472
0 379 620
0 390 770
0 395 902
0 399 1025
0 400 1146
0 401 1275
0 400 1403
0 396 1524
0 393 1609
0 389 1693
0 384 1775
0 379 1854
0 374 1932
0 368 2009
0 363 2090
0 358 2176
19 355 2255
57 356 2317
133 358 2373
212 362 2427
304 366 2481
389 371 2534
472 377 2587
552 384 2639
623 391 2692
57 493 65
56 461 87
47 442 120
29 440 168
15 448 252
5 458 354
5 474 487
0 489 636
0 502 786
0 511 925
0 517 1050
0 521 1172
0 525 1302
0 527 1433
0 528 1561
0 527 1649
0 525 1735
0 522 1819
0 519 1898
0 516 1976
0 512 2054
0 509 2134
0 506 2217
0 507 2308
4 509 2370
29 513 2426
74 518 2480
167 523 2533
268 528 2586
374 535 2638
465 542 2690
552 550 2742
25 599 61
25 572 89
24 554 126
13 553 177
9 563 265
0 575 370
0 592 503
0 609 654
0 624 806
0 635 948
0 643 1076
0 648 1198
0 655 1328
0 660 1461
0 662 1592
0 663 1688
0 662 1775
0 661 1860
0 659 1941
0 657 2019
0 655 2098
0 653 2176
0 652 2260
0 655 2351
0 659 2423
0 664 2479
18 669 2533
33 676 2586
122 682 2639
217 689 2691
340 697 2743
442 705 2794
0 706 55
0 681 86
0 667 129
0 667 185
0 677 275
0 692 384
0 711 519
0 729 670
0 747 824
0 759 970
0 768 1100
0 776 1223
0 784 1353
0 791 1487
0 796 1620
0 798 1721
0 799 1814
0 799 1899
0 799 1981
0 798 2061
0 797 2140
0 797 2219
0 798 2302
0 803 2393
0 809 2468
0 815 2532
0 821 2586
0 828 2639
0 835 2692
77 843 2744
159 851 2795
296 860 2847
0 817 47
0 794 82
0 781 129
0 782 192
0 791 286
0 805 397
0 824 534
0 844 685
0 862 840
0 878 990
0 889 1121
0 899 1245
0 909 1376
0 917 1509
0 925 1643
0 930 1753
0 933 1848
0 935 1935
0 937 2018
0 938 2099
0 939 2180
0 940 2259
0 943 2342
0 951 2435
0 959 2515
0 967 2584
0 975 2639
0 983 2693
0 991 2745
0 1001 2797
27 1010 2849
68 1020 2900
0 928 36
0 913 76
0 901 130
0 902 198
0 911 296
0 925 410
0 944 549
0 965 702
0 985 857
0 1002 1010
0 1015 1142
0 1026 1267
0 1036 1397
0 1047 1531
0 1056 1666
0 1062 1781
0 1066 1880
0 1069 1967
0 1072 2052
0 1074 2135
0 1076 2215
0 1078 2296
0 1083 2379
0 1092 2471
0 1102 2559
0 1111 2631
0 1119 2686
0 1128 2739
0 1137 2792
0 1147 2844
0 1157 2896
0 1167 2947
0 1037 25
0 1025 69
0 1021 127
0 1022 203
0 1032 305
0 1047 422
0 1067 563
0 1089 718
0 1110 875
0 1129 1029
0 1143 1163
0 1155 1288
0 1166 1419
0 1178 1553
0 1189 1689
0 1196 1808
0 1201 1911
0 1204 1999
0 1207 2084
0 1210 2168
0 1212 2249
0 1215 2330
0 1221 2414
0 1231 2507
0 1242 2595
0 1252 2675
0 1261 2730
0 1270 2784
0 1280 2837
0 1289 2888
0 1299 2940
0 1310 2991
0 1131 15
0 1124 66
0 1122 128
0 1128 209
0 1143 315
0 1159 435
0 1183 578
0 1208 734
0 1232 892
0 1255 1048
0 1272 1182
0 1285 1308
0 1301 1440
0 1314 1575
0 1327 1712
0 1336 1837
0 1341 1941
0 1345 2030
0 1348 2116
0 1351 2200
0 1354 2282
0 1358 2365
0 1365 2450
0 1376 2541
0 1388 2634
0 1399 2718
0 1408 2774
0 1418 2827
0 1427 2880
0 1437 2932
0 1447 2983
0 1458 3034
0 1226 7
0 1222 60
0 1223 130
0 1231 214
0 1248 326
0 1267 448
0 1292 592
0 1319 749
0 1345 908
0 1369 1064
0 1388 1199
0 1403 1325
0 1419 1457
0 1435 1592
0 1450 1730
0 1461 1859
0 1469 1966
0 1473 2055
0 1479 2143
0 1483 2228
0 1486 2311
0 1495 2396
0 1504 2482
0 1517 2574
0 1531 2667
0 1543 2755
0 1554 2815
0 1565 2869
0 1574 2922
0 1586 2974
0 1597 3026
0 1608 3076
0 1322 0
0 1320 55
0 1324 127
0 1334 220
0 1351 335
0 1372 462
0 1398 607
0 1425 764
0 1452 923
0 1477 1079
0 1496 1214
0 1512 1340
0 1528 1472
0 1545 1607
0 1561 1744
0 1575 1876
0 1585 1987
0 1592 2078
0 1599 2166
0 1606 2253
0 1612 2336
0 1624 2423
0 1637 2512
0 1652 2603
0 1668 2697
0 1683 2786
0 1696 2851
0 1708 2909
0 1720 2962
0 1733 3014
0 1745 3066
0 1758 3117
0 1419 0
0 1422 49
0 1426 126
0 1438 225
0 1456 347
0 1477 476
0 1503 622
0 1531 779
0 1558 938
0 1584 1095
0 1603 1229
0 1619 1355
0 1636 1486
0 1653 1621
0 1670 1758
0 1686 1895
0 1696 2007
0 1704 2097
0 1711 2186
0 1719 2273
0 1726 2357
0 1741 2446
0 1755 2535
0 1771 2626
0 1787 2720
0 1803 2810
0 1816 2881
0 1829 2939
0 1841 2992
0 1853 3044
0 1866 3096
0 1879 3147
0 1506 0
0 1513 49
0 1523 127
0 1536 231
0 1557 358
0 1581 491
0 1607 638
0 1638 796
0 1666 955
0 1691 1110
0 1711 1244
0 1727 1370
0 1745 1501
0 1762 1635
0 1779 1772
0 1796 1910
0 1808 2025
0 1816 2116
0 1823 2205
0 1833 2294
0 1842 2379
0 1857 2468
0 1873 2559
0 1890 2649
0 1906 2743
0 1923 2834
0 1936 2908
0 1949 2968
0 1961 3022
0 1974 3073
0 1986 3125
0 1999 3176
0 1581 0
0 1593 49
0 1608 126
0 1627 238
0 1651 369
0 1678 507
0 1709 654
0 1741 813
0 1773 972
0 1799 1126
0 1819 1259
0 1836 1385
0 1854 1515
0 1872 1649
0 1889 1786
0 1906 1926
0 1919 2042
0 1927 2134
0 1935 2223
0 1945 2313
0 1959 2402
0 1975 2492
0 1992 2582
0 2008 2672
0 2025 2765
0 2042 2856
0 2056 2935
0 2069 2997
0 2081 3050
0 2094 3102
0 2106 3153
0 2119 3204
0 1656 0
0 1671 58
0 1686 138
0 1705 253
0 1731 388
0 1758 526
0 1789 673
0 1822 830
0 1854 988
0 1882 1139
0 1906 1272
0 1925 1397
0 1946 1527
0 1966 1661
0 1986 1798
0 2007 1938
0 2023 2056
0 2033 2150
0 2050 2244
0 2061 2334
0 2077 2424
0 2094 2514
0 2111 2604
0 2128 2694
0 2145 2787
0 2162 2879
0 2178 2963
0 2191 3025
0 2203 3078
0 2216 3130
0 2229 3181
0 2241 3231
0 1732 0
0 1748 63
0 1765 153
0 1783 270
0 1809 405
0 1837 546
0 1868 692
0 1901 848
0 1933 1004
0 1962 1153
0 1986 1284
0 2008 1409
0 2030 1539
0 2052 1672
0 2075 1809
0 2097 1949
0 2116 2069
0 2130 2165
0 2148 2260
0 2167 2353
0 2184 2444
0 2203 2534
0 2221 2624
0 2239 2714
0 2258 2806
0 2275 2900
0 2292 2987
0 2307 3051
0 2320 3104
0 2333 3156
0 2347 3207
0 2360 3258
0 1808 0
0 1825 70
0 1844 164
0 1864 291
0 1890 427
0 1918 566
0 1948 712
0 1980 867
0 2012 1022
0 2040 1167
0 2064 1297
0 2086 1421
0 2108 1550
0 2130 1683
0 2153 1819
0 2175 1958
0 2196 2079
0 2214 2179
0 2235 2275
0 2255 2368
0 2276 2460
0 2296 2550
0 2317 2641
0 2337 2731
0 2357 2823
0 2376 2916
0 2396 3008
0 2413 3074
0 2427 3127
0 2443 3179
0 2458 3231
0 2473 3282
0 1885 0
0 1904 81
0 1924 183
0 1945 316
0 1970 450
0 1998 589
0 2028 734
0 2060 888
0 2091 1041
0 2118 1183
0 2142 1311
0 2164 1434
0 2186 1562
0 2209 1695
0 2232 1830
0 2260 1971
0 2282 2093
0 2302 2195
0 2323 2290
0 2344 2384
0 2365 2476
0 2385 2566
0 2406 2656
0 2426 2745
0 2446 2837
0 2466 2930
0 2486 3023
0 2503 3092
0 2519 3146
0 2534 3198
0 2549 3249
0 2565 3300
0 1964 0
0 1983 89
0 2004 201
0 2026 342
0 2051 476
0 2078 613
0 2108 757
0 2140 911
0 2170 1061
0 2197 1200
0 2220 1326
0 2242 1448
0 2266 1576
0 2290 1708
0 2313 1843
0 2343 1984
0 2369 2107
0 2392 2212
0 2413 2307
0 2434 2400
0 2454 2491
0 2474 2581
0 2494 2670
0 2514 2760
0 2534 2851
0 2554 2943
0 2574 3037
0 2591 3108
0 2607 3164
0 2622 3216
0 2637 3267
0 2652 3317
0 2044 0
0 2062 102
0 2084 221
0 2108 371
0 2133 504
0 2159 639
0 2188 782
0 2220 935
0 2250 1084
0 2275 1216
0 2298 1341
0 2321 1462
0 2349 1591
0 2376 1724
0 2404 1860
0 2433 2000
0 2459 2123
0 2482 2229
0 2503 2323
0 2523 2416
0 2544 2507
0 2563 2596
0 2583 2685
0 2602 2774
0 2622 2865
0 2642 2957
0 2662 3050
0 2679 3123
0 2695 3182
0 2710 3234
0 2725 3284
0 2740 3334
0 2116 2
0 2141 132
0 2163 252
0 2189 402
0 2214 532
0 2241 667
0 2270 809
0 2304 960
0 2335 1107
0 2361 1235
0 2387 1358
0 2409 1479
0 2437 1608
0 2466 1741
0 2495 1877
0 2524 2017
0 2550 2140
0 2573 2246
0 2593 2340
0 2613 2432
0 2633 2523
0 2652 2612
0 2671 2700
0 2691 2789
0 2710 2879
0 2730 2971
0 2750 3063
0 2768 3139
0 2784 3200
0 2799 3251
0 2814 3302
0 2828 3351
0 2185 8
0 2212 153
0 2239 292
0 2267 436
0 2294 564
0 2321 696
0 2351 836
0 2386 987
0 2419 1131
0 2446 1256
0 2474 1377
0 2501 1498
0 2529 1627
0 2558 1759
0 2587 1895
0 2616 2034
0 2642 2157
0 2664 2263
0 2684 2357
0 2704 2449
0 2723 2539
0 2742 2627
0 2761 2716
0 2780 2804
0 2799 2894
0 2819 2985
0 2839 3077
0 2857 3153
0 2873 3218
0 2888 3269
0 2902 3319
0 2917 3369
0 2249 32
0 2279 196
0 2307 337
0 2335 473
0 2364 598
0 2394 729
0 2428 867
0 2464 1016
0 2499 1159
0 2529 1276
0 2559 1396
0 2588 1517
0 2621 1646
0 2650 1778
0 2679 1913
0 2708 2052
0 2733 2174
0 2755 2280
0 2774 2373
0 2794 2465
0 2813 2555
0 2831 2643
0 2850 2731
0 2869 2819
0 2889 2909
0 2908 2999
0 2928 3091
0 2946 3169
0 2963 3236
0 2977 3286
0 2991 3336
0 3006 3386
0 2320 69
0 2349 234
0 2377 381
0 2405 512
0 2433 635
0 2464 763
0 2498 900
0 2534 1043
0 2570 1185
0 2599 1299
0 2628 1416
0 2659 1536
0 2692 1664
0 2724 1796
0 2754 1931
0 2785 2069
0 2812 2190
0 2835 2295
0 2857 2389
0 2878 2480
0 2898 2570
0 2920 2658
0 2939 2746
0 2959 2834
0 2978 2923
0 2998 3013
0 3018 3105
0 3036 3185
0 3052 3253
0 3066 3304
0 3081 3353
0 3096 3403
0 2393 115
0 2422 280
0 2449 427
0 2476 553
