lut/Fuji F125 Kodak 2395 (by Adobe).3DL
#Created by: Adobe Photoshop Export Color Lookup Plugin
#Description: -14b15759bd8c6a7d.jpg
0 33 66 99 132 165 198 231 264 297 330 363 396 429 462 495 528 561 594 627 660 693 726 759 792 825 858 891 924 957 990 1023
593 492 411
591 496 451
587 503 517
582 514 617
578 525 745
576 535 891
577 543 1062
589 548 1219
605 551 1369
623 550 1507
644 546 1643
668 540 1778
701 531 1909
733 523 2018
764 514 2113
793 502 2206
825 490 2299
859 475 2393
900 459 2486
940 444 2567
979 431 2629
1017 417 2690
1055 403 2749
1093 388 2808
1137 372 2867
1184 355 2925
1230 338 2979
1276 321 3031
1321 305 3080
1365 293 3114
1408 281 3148
1452 269 3181
599 528 420
598 521 429
595 524 465
591 529 527
588 535 587
584 543 692
581 551 802
578 558 915
584 564 1049
587 568 1173
595 571 1310
610 570 1447
628 570 1584
652 565 1716
678 559 1827
703 553 1960
734 544 2063
768 533 2166
800 525 2262
837 511 2357
871 500 2440
910 487 2532
949 475 2604
991 462 2678
1032 451 2742
1077 438 2804
1119 426 2866
1165 412 2926
1212 398 2983
1263 386 3042
1310 374 3088
1357 363 3132
607 586 432
605 574 440
603 568 457
600 569 488
596 572 537
592 576 596
587 583 672
581 590 764
577 597 863
573 603 979
572 609 1108
576 613 1245
588 615 1383
604 616 1516
622 613 1647
644 609 1780
672 603 1912
706 596 2025
739 590 2122
771 582 2217
801 572 2313
836 561 2409
875 549 2507
918 538 2590
961 529 2661
1003 520 2727
1045 510 2791
1087 500 2854
1134 489 2918
1185 478 2980
1237 468 3042
1287 456 3098
615 669 450
613 651 455
611 640 471
608 636 496
604 637 541
599 639 595
593 644 660
586 650 749
580 657 846
574 663 948
570 669 1071
569 674 1203
576 678 1340
589 679 1472
605 679 1600
622 676 1729
646 672 1860
678 667 1991
712 661 2088
744 655 2183
776 648 2276
808 639 2370
844 629 2466
884 619 2562
927 610 2638
969 602 2706
1012 594 2770
1053 586 2834
1096 577 2896
1145 568 2960
1196 559 3022
1248 550 3083
618 753 463
618 728 469
615 716 482
611 711 507
606 711 548
601 712 600
594 716 663
586 721 745
578 727 839
571 732 935
562 739 1054
558 744 1184
563 748 1317
572 750 1450
586 750 1578
602 748 1704
623 744 1832
651 740 1963
685 735 2073
719 729 2167
752 723 2259
783 715 2351
818 707 2445
857 697 2540
897 688 2627
940 681 2698
984 673 2763
1026 666 2825
1068 657 2888
1112 649 2949
1163 641 3012
1215 633 3073
617 845 477
617 819 482
615 801 495
611 796 519
605 794 559
599 793 607
592 796 668
582 800 749
572 804 837
564 809 930
553 814 1044
544 819 1171
547 823 1302
553 825 1432
563 825 1561
579 823 1686
597 819 1811
623 816 1940
656 811 2055
691 806 2157
725 800 2248
757 794 2339
790 787 2430
829 779 2524
870 771 2614
910 763 2694
954 756 2759
998 749 2822
1041 742 2884
1084 734 2945
1131 727 3006
1183 719 3068
609 952 490
611 925 496
610 906 509
606 896 532
599 892 570
591 889 618
583 888 676
572 891 754
561 894 840
549 896 932
537 900 1042
525 904 1164
525 907 1292
528 908 1422
534 908 1550
549 904 1673
568 900 1798
589 896 1923
622 892 2045
657 888 2152
693 884 2242
727 878 2333
761 872 2423
797 866 2515
838 859 2608
880 852 2694
923 847 2760
967 841 2824
1011 835 2886
1054 829 2947
1101 822 3008
1151 816 3069
584 1079 501
591 1046 509
591 1024 522
587 1011 544
581 1002 582
572 997 629
562 994 687
549 993 762
536 995 846
522 996 937
506 1000 1044
492 1004 1163
486 1007 1290
485 1009 1420
488 1009 1549
500 1007 1671
516 1004 1794
535 1000 1918
571 996 2044
608 992 2155
646 987 2247
684 982 2336
719 976 2426
755 970 2515
799 964 2607
841 957 2697
885 951 2769
931 945 2833
976 939 2896
1022 932 2956
1067 926 3016
1116 920 3076
545 1215 512
555 1180 520
560 1153 535
558 1137 557
551 1126 595
541 1118 641
529 1112 698
514 1109 772
497 1108 854
481 1109 945
461 1111 1051
442 1115 1165
431 1118 1292
425 1120 1421
425 1122 1551
435 1119 1673
450 1116 1795
466 1113 1918
504 1109 2044
545 1105 2160
586 1099 2255
628 1093 2344
669 1087 2432
705 1080 2521
750 1074 2611
797 1068 2702
842 1061 2779
888 1055 2846
936 1049 2908
983 1043 2969
1031 1036 3028
1078 1030 3087
481 1359 518
497 1325 530
503 1298 546
503 1281 568
496 1270 607
485 1261 653
470 1254 711
450 1250 785
429 1249 867
403 1248 958
380 1249 1061
357 1251 1174
332 1252 1300
324 1252 1429
321 1252 1559
328 1248 1680
344 1243 1802
365 1238 1924
408 1232 2048
453 1227 2165
504 1220 2267
553 1213 2356
598 1205 2444
642 1197 2531
689 1192 2620
738 1186 2710
788 1181 2796
836 1175 2864
885 1170 2926
937 1164 2987
985 1159 3047
1034 1153 3105
382 1498 522
405 1467 536
414 1440 554
415 1423 577
404 1413 618
390 1403 664
371 1397 722
337 1394 796
308 1392 878
273 1392 969
234 1393 1072
207 1394 1184
173 1395 1310
163 1395 1438
159 1393 1568
161 1390 1691
165 1385 1812
183 1379 1934
230 1373 2058
287 1368 2178
347 1361 2284
423 1353 2374
479 1346 2462
533 1338 2549
594 1331 2636
648 1325 2726
705 1319 2815
763 1313 2887
814 1308 2949
871 1301 3010
927 1295 3070
977 1289 3129
257 1634 524
281 1604 540
297 1580 559
299 1564 584
287 1553 626
273 1545 674
248 1539 731
216 1536 806
180 1534 889
133 1535 980
95 1536 1083
58 1539 1193
17 1541 1320
0 1541 1448
0 1539 1578
0 1536 1701
0 1532 1824
0 1526 1946
39 1521 2070
88 1516 2190
165 1510 2303
237 1503 2395
310 1496 2482
379 1488 2569
454 1481 2657
530 1475 2745
595 1468 2836
663 1461 2911
727 1455 2976
789 1448 3036
851 1441 3096
909 1434 3155
73 1772 523
87 1743 541
102 1720 562
108 1703 588
91 1693 632
81 1684 681
74 1677 739
69 1674 815
53 1672 898
48 1672 990
34 1673 1092
17 1675 1202
17 1680 1328
0 1681 1457
0 1681 1587
0 1680 1712
0 1677 1835
0 1673 1958
0 1670 2082
20 1666 2204
39 1662 2322
50 1657 2415
87 1651 2504
104 1644 2591
208 1637 2678
305 1631 2766
424 1625 2856
509 1618 2936
589 1612 3004
670 1605 3065
740 1598 3125
810 1591 3184
0 1898 520
5 1874 540
13 1852 563
18 1836 590
14 1828 636
2 1820 687
0 1814 745
0 1812 822
0 1811 906
0 1811 998
0 1812 1100
0 1814 1210
0 1818 1337
0 1821 1465
0 1822 1595
0 1821 1721
0 1819 1846
0 1816 1968
0 1813 2092
0 1810 2217
0 1808 2338
0 1803 2433
0 1797 2522
5 1791 2610
24 1786 2697
117 1780 2785
189 1775 2875
274 1770 2958
375 1763 3030
493 1757 3091
597 1752 3152
676 1745 3211
0 2015 516
0 1994 537
0 1977 562
0 1964 591
0 1957 639
0 1952 692
0 1948 751
0 1948 828
0 1948 913
0 1949 1006
0 1951 1108
0 1953 1218
0 1957 1345
0 1960 1474
0 1962 1604
0 1961 1730
0 1959 1855
0 1957 1978
0 1954 2102
0 1951 2226
0 1949 2352
0 1944 2448
0 1939 2538
0 1933 2626
0 1928 2714
0 1923 2802
0 1919 2891
38 1915 2976
102 1911 3055
257 1906 3115
389 1901 3176
511 1896 3237
0 2129 509
0 2109 532
0 2093 560
0 2081 593
0 2074 642
0 2069 696
0 2064 755
0 2064 834
0 2065 919
0 2068 1012
0 2071 1115
0 2075 1224
0 2082 1351
0 2087 1480
0 2090 1610
0 2094 1739
0 2094 1864
0 2094 1987
0 2094 2111
0 2091 2236
0 2090 2362
0 2085 2463
0 2080 2554
0 2074 2642
0 2069 2729
0 2064 2817
0 2060 2906
0 2057 2994
31 2052 3076
39 2047 3137
118 2042 3198
188 2037 3258
0 2241 502
0 2224 527
0 2209 557
0 2197 593
0 2191 644
0 2185 699
0 2181 758
0 2181 839
0 2182 925
0 2185 1018
0 2189 1121
0 2194 1230
0 2201 1358
0 2208 1487
0 2213 1617
0 2217 1745
0 2219 1871
0 2221 1994
0 2221 2118
0 2222 2244
0 2221 2370
0 2219 2474
0 2214 2568
0 2209 2656
0 2205 2744
0 2201 2831
0 2198 2920
0 2197 3010
0 2193 3095
0 2189 3157
1 2184 3218
18 2179 3279
0 2352 493
0 2337 520
0 2324 553
0 2313 593
0 2307 645
0 2302 701
0 2297 761
0 2297 842
0 2299 931
0 2301 1024
0 2305 1127
0 2310 1236
0 2318 1364
0 2324 1493
0 2330 1623
0 2334 1751
0 2336 1877
0 2338 2000
0 2338 2124
0 2340 2249
0 2342 2376
0 2342 2481
0 2340 2579
0 2338 2668
0 2335 2756
0 2333 2844
0 2333 2933
0 2332 3023
0 2332 3111
0 2329 3176
0 2326 3238
1 2321 3299
0 2438 488
0 2427 518
0 2417 552
0 2409 594
0 2408 648
0 2404 704
0 2402 764
0 2406 847
0 2409 936
0 2415 1030
0 2421 1133
0 2427 1243
0 2435 1371
0 2441 1500
0 2447 1629
0 2451 1758
0 2454 1884
0 2455 2007
0 2455 2130
0 2457 2255
0 2459 2381
0 2459 2490
0 2458 2589
0 2456 2678
0 2454 2766
0 2452 2854
0 2451 2943
0 2451 3032
0 2450 3121
0 2448 3190
0 2446 3253
0 2442 3313
0 2522 482
0 2512 515
0 2504 553
0 2500 597
0 2499 650
0 2498 708
0 2498 768
0 2503 852
0 2509 942
0 2516 1035
0 2524 1139
0 2533 1249
0 2542 1377
0 2551 1506
0 2557 1636
0 2563 1765
0 2568 1890
0 2569 2013
0 2572 2137
0 2574 2261
0 2577 2387
0 2577 2497
0 2576 2598
0 2574 2688
0 2571 2776
0 2569 2864
0 2569 2952
0 2568 3042
0 2568 3130
0 2566 3201
0 2564 3266
0 2562 3327
0 2604 475
0 2595 512
0 2589 553
0 2586 602
0 2585 654
0 2584 711
0 2585 774
0 2590 858
0 2596 949
0 2603 1041
0 2611 1145
0 2621 1256
0 2634 1383
0 2645 1512
0 2655 1642
0 2665 1770
0 2672 1896
0 2679 2019
0 2685 2143
0 2690 2268
0 2694 2394
0 2695 2505
0 2694 2607
0 2692 2698
0 2690 2786
0 2687 2874
0 2686 2962
0 2686 3051
0 2686 3138
0 2684 3213
0 2682 3280
0 2680 3341
0 2686 468
0 2679 513
0 2673 556
0 2671 606
0 2670 658
0 2669 717
0 2670 781
0 2675 865
0 2682 956
0 2688 1048
0 2697 1152
0 2707 1264
0 2720 1390
0 2732 1518
0 2743 1648
0 2753 1776
0 2761 1901
0 2769 2024
0 2775 2147
0 2782 2272
0 2789 2397
0 2795 2511
0 2796 2614
0 2796 2705
0 2798 2794
0 2797 2882
0 2800 2971
0 2802 3059
0 2803 3147
0 2803 3225
0 2801 3293
0 2798 3354
0 2762 463
0 2758 511
0 2755 560
0 2753 611
0 2753 663
0 2754 722
0 2755 789
0 2761 873
0 2767 963
0 2773 1055
0 2783 1160
0 2793 1272
0 2805 1398
0 2817 1525
0 2829 1654
0 2838 1782
0 2847 1906
0 2854 2028
0 2861 2151
0 2868 2275
0 2877 2401
0 2884 2515
0 2889 2620
0 2892 2712
0 2895 2801
0 2898 2889
0 2902 2978
0 2907 3066
0 2911 3155
0 2912 3235
0 2912 3304
0 2909 3365
0 2828 463
0 2828 513
0 2827 564
0 2829 617
0 2831 667
0 2834 726
0 2839 798
0 2845 882
0 2851 971
0 2857 1062
0 2867 1168
0 2877 1281
0 2890 1406
0 2902 1533
0 2914 1661
0 2923 1788
0 2932 1912
0 2939 2033
0 2946 2156
0 2953 2280
0 2962 2404
0 2969 2519
0 2975 2625
0 2978 2717
0 2981 2806
0 2984 2894
0 2988 2982
0 2992 3070
0 2997 3158
0 3001 3242
0 3003 3312
0 3004 3373
0 2886 471
0 2887 522
0 2888 572
0 2890 625
0 2893 675
0 2897 735
0 2904 809
0 2913 892
0 2920 980
0 2929 1070
0 2941 1177
0 2953 1291
0 2968 1415
0 2983 1541
0 2995 1669
0 3006 1795
0 3015 1919
0 3023 2039
0 3029 2161
0 3037 2284
0 3046 2408
0 3053 2524
0 3059 2631
0 3063 2722
0 3066 2811
0 3069 2899
0 3072 2986
0 3077 3074
0 3082 3163
0 3086 3248
0 3089 3319
0 3091 3380
0 2942 481
0 2943 533
0 2944 584
0 2947 635
0 2950 685
0 2954 744
0 2962 821
0 2972 904
0 2982 990
0 2992 1080
0 3006 1187
0 3022 1301
0 3039 1425
0 3055 1550
0 3071 1677
0 3083 1802
0 3094 1925
0 3102 2045
0 3110 2167
0 3119 2289
0 3128 2413
0 3136 2529
0 3142 2636
0 3146 2728
0 3149 2816
0 3152 2903
0 3156 2991
0 3161 3079
0 3166 3167
0 3171 3253
0 3174 3325
0 3175 3387
0 2996 491
0 2998 545
0 3000 596
0 3002 645
0 3005 696
0 3010 756
0 3019 835
0 3028 917
0 3038 1002
0 3049 1090
0 3063 1198
0 3079 1313
0 3095 1435
0 3112 1560
0 3128 1685
0 3143 1809
0 3156 1932
0 3167 2051
0 3179 2172
0 3191 2294
0 3205 2417
0 3217 2534
0 3225 2642
0 3229 2733
0 3232 2821
0 3235 2909
0 3239 2996
0 3243 3083
0 3249 3171
0 3254 3259
0 3257 3332
0 3259 3393
0 3050 503
0 3053 557
0 3055 608
0 3057 655
0 3061 711
0 3066 771
0 3075 849
0 3084 931
0 3094 1014
0 3104 1101
0 3119 1210
0 3135 1326
0 3151 1447
0 3168 1570
0 3184 1694
0 3199 1817
0 3213 1938
0 3225 2057
0 3238 2177
0 3251 2299
0 3267 2421
0 3280 2538
0 3292 2646
0 3297 2737
0 3304 2826
0 3308 2913
0 3314 3000
0 3322 3088
0 3328 3175
0 3336 3264
0 3339 3338
0 3341 3400
0 3104 516
0 3106 570
0 3109 620
0 3111 666
