lut/Fuji F125 Kodak 2393 (by Adobe).3DL
#Created by: Adobe Photoshop Export Color Lookup Plugin
#Description: -14b15759bd8c6a7d.jpg
0 33 66 99 132 165 198 231 264 297 330 363 396 429 462 495 528 561 594 627 660 693 726 759 792 825 858 891 924 957 990 1023
8 5 5
7 5 10
5 6 31
1 7 69
0 5 167
1 3 285
2 0 429
14 0 554
31 0 674
57 0 796
90 0 902
129 0 1003
182 0 1104
243 0 1197
309 0 1284
379 0 1355
450 0 1425
522 0 1496
607 0 1568
694 0 1636
784 0 1698
863 0 1748
943 0 1797
1026 0 1844
1115 0 1891
1207 0 1938
1302 0 1983
1389 0 2026
1470 0 2067
1543 0 2099
1618 0 2131
1693 0 2161
8 9 6
8 8 7
7 9 12
4 9 33
0 10 52
0 10 128
1 9 209
1 8 307
9 7 417
15 4 527
23 1 636
44 0 741
58 0 859
95 0 969
144 0 1068
184 0 1171
247 0 1260
311 0 1349
383 0 1441
464 0 1517
546 0 1590
627 0 1668
709 0 1732
800 0 1805
897 0 1874
989 0 1931
1078 0 1989
1174 0 2044
1262 0 2095
1362 0 2152
1454 0 2198
1545 0 2241
6 21 7
6 18 8
6 18 11
4 18 16
2 20 32
0 22 57
0 23 103
0 25 181
0 25 271
0 22 375
0 19 486
0 15 591
5 14 708
12 10 833
37 9 948
60 3 1059
96 0 1166
152 0 1272
219 0 1374
295 0 1471
372 0 1552
455 0 1634
538 0 1715
631 0 1800
729 0 1882
832 0 1960
924 0 2027
1019 0 2090
1114 0 2151
1214 0 2211
1318 0 2272
1427 0 2330
0 42 9
0 37 10
0 35 12
0 35 18
0 38 32
0 41 56
0 44 96
0 48 172
0 51 259
0 53 357
0 52 471
0 51 586
0 46 692
1 39 815
3 30 944
3 16 1065
22 7 1178
54 0 1286
117 0 1396
189 0 1502
272 0 1606
360 0 1689
449 0 1772
538 0 1856
636 0 1942
737 0 2027
844 0 2112
944 0 2181
1042 0 2245
1139 0 2307
1240 0 2368
1345 0 2428
0 80 10
0 70 11
0 67 14
0 67 19
0 71 33
0 75 56
0 81 94
0 89 164
0 95 252
0 101 351
0 107 457
0 108 575
0 111 691
0 110 806
0 104 934
0 98 1071
0 87 1188
18 80 1299
23 69 1410
79 63 1522
142 54 1630
239 38 1732
336 32 1817
439 22 1901
540 7 1985
643 3 2072
755 0 2159
868 0 2245
972 0 2315
1075 0 2379
1175 0 2441
1278 0 2502
0 130 10
0 117 11
0 110 15
0 110 20
0 114 34
0 121 56
0 128 93
0 139 161
0 150 245
0 159 344
0 169 449
0 178 563
0 184 685
0 190 801
0 192 923
0 192 1061
0 191 1196
0 183 1310
0 176 1421
2 168 1533
47 151 1646
103 138 1755
195 123 1855
305 106 1941
426 92 2025
537 75 2110
654 70 2198
774 65 2286
891 64 2372
1002 61 2443
1108 58 2506
1210 58 2567
0 199 9
0 180 11
0 171 15
0 169 20
0 174 34
0 182 57
0 193 92
0 206 158
0 220 239
0 237 339
0 250 442
0 262 552
0 277 681
0 286 797
0 294 911
0 304 1047
0 309 1184
0 312 1317
0 313 1428
0 312 1540
2 310 1653
9 304 1768
52 296 1875
128 291 1972
264 283 2058
398 274 2143
532 267 2230
660 259 2317
787 251 2405
915 239 2492
1029 231 2561
1138 225 2624
0 283 7
0 266 10
0 254 14
0 253 20
0 257 34
0 264 56
0 275 91
0 290 154
0 306 234
0 323 334
0 340 436
0 355 543
0 372 666
0 387 791
0 398 905
0 412 1033
0 425 1172
0 433 1311
0 443 1432
0 448 1544
0 451 1656
0 456 1771
0 455 1886
38 454 1992
57 456 2084
196 453 2169
339 452 2255
508 452 2343
650 445 2431
796 444 2518
932 440 2604
1050 434 2673
0 372 5
0 355 8
0 344 12
0 342 18
0 346 33
0 353 55
0 364 90
0 379 152
0 395 229
0 414 329
0 432 431
0 450 535
0 468 655
0 487 779
0 503 900
0 519 1024
0 537 1158
0 552 1300
0 565 1428
0 577 1546
0 586 1658
0 596 1772
0 604 1887
0 609 2003
0 615 2104
0 621 2193
142 625 2279
275 630 2365
471 634 2454
643 638 2541
803 643 2628
946 645 2713
0 461 1
0 444 4
0 433 9
0 430 16
0 435 30
0 442 53
0 454 87
0 469 149
0 487 224
0 506 320
0 526 423
0 546 528
0 567 642
0 588 768
0 608 896
0 627 1013
0 647 1144
0 668 1283
0 688 1424
0 703 1548
0 718 1659
0 732 1772
0 744 1887
0 756 2002
0 766 2114
0 775 2213
0 785 2299
60 793 2385
157 801 2472
430 811 2560
622 819 2648
798 827 2735
0 554 0
0 540 1
0 529 5
0 526 12
0 530 27
0 537 49
0 549 83
0 564 144
0 582 219
0 602 314
0 624 416
0 645 521
0 665 632
0 690 757
0 713 887
0 733 1004
0 756 1129
0 779 1266
0 804 1409
0 824 1543
0 841 1657
0 860 1769
0 876 1883
0 891 1998
0 907 2113
0 919 2221
0 931 2313
0 944 2398
20 955 2485
129 968 2573
380 981 2661
577 992 2748
0 647 0
0 635 0
0 626 2
0 623 7
0 627 22
0 634 44
0 646 79
0 661 140
0 678 214
0 699 307
0 721 409
0 744 515
0 765 623
0 790 745
0 817 876
0 838 994
0 863 1118
0 889 1250
0 916 1393
0 942 1530
0 963 1653
0 984 1765
0 1004 1878
0 1023 1992
0 1041 2107
0 1059 2222
0 1074 2320
0 1089 2410
0 1103 2496
0 1118 2583
94 1134 2671
327 1149 2758
0 731 0
0 720 0
0 713 0
0 712 2
0 717 16
0 725 38
0 738 73
0 755 133
0 773 207
0 795 299
0 819 403
0 843 509
0 866 614
0 893 733
0 921 861
0 948 986
0 974 1108
0 1002 1236
0 1034 1376
0 1062 1516
0 1089 1650
0 1113 1762
0 1136 1874
0 1159 1987
0 1181 2102
0 1201 2217
0 1222 2332
0 1240 2422
0 1257 2507
0 1275 2593
0 1293 2681
94 1310 2769
0 817 0
0 807 0
0 801 0
0 800 0
0 806 9
0 815 31
0 828 65
0 845 126
0 864 199
0 886 292
0 912 395
0 937 502
0 961 605
0 989 720
0 1018 846
0 1047 975
0 1075 1096
0 1104 1221
0 1138 1357
0 1171 1499
0 1201 1639
0 1229 1755
0 1254 1865
0 1280 1978
0 1305 2091
0 1328 2206
0 1351 2322
0 1373 2427
0 1392 2512
0 1412 2597
0 1433 2683
0 1452 2772
0 903 0
0 894 0
0 889 0
0 889 0
0 896 6
0 905 23
0 918 58
0 935 118
0 954 190
0 976 283
0 1001 387
0 1028 494
0 1053 597
0 1080 710
0 1111 831
0 1142 962
0 1172 1087
0 1200 1205
0 1236 1339
0 1271 1478
0 1305 1624
0 1334 1743
0 1363 1855
0 1390 1966
0 1418 2079
0 1444 2192
0 1469 2307
0 1493 2413
0 1516 2512
0 1537 2597
0 1558 2682
0 1581 2769
0 983 0
0 979 0
0 976 0
0 978 0
0 987 0
0 997 15
0 1010 48
0 1027 108
0 1046 181
0 1068 274
0 1094 377
0 1121 485
0 1147 588
0 1175 699
0 1205 818
0 1240 953
0 1270 1076
0 1298 1192
0 1336 1322
0 1373 1459
0 1409 1602
0 1443 1732
0 1473 1846
0 1502 1955
0 1532 2066
0 1560 2179
0 1588 2292
0 1614 2407
0 1639 2512
0 1663 2596
0 1685 2681
0 1709 2767
0 1057 0
0 1054 0
0 1054 0
0 1058 0
0 1067 0
0 1079 8
0 1093 40
0 1111 98
0 1131 171
0 1153 265
0 1179 368
0 1207 475
0 1234 579
0 1264 688
0 1295 805
0 1330 938
0 1364 1065
0 1393 1179
0 1432 1307
0 1472 1441
0 1510 1581
0 1547 1716
0 1580 1837
0 1611 1945
0 1644 2055
0 1675 2167
0 1704 2279
0 1734 2393
0 1762 2506
0 1788 2596
0 1813 2679
0 1837 2764
0 1125 0
0 1123 0
0 1123 0
0 1127 0
0 1138 0
0 1150 8
0 1165 32
0 1185 89
0 1206 161
0 1230 256
0 1257 359
0 1286 465
0 1315 569
0 1346 679
0 1378 792
0 1416 923
0 1451 1048
0 1484 1167
0 1524 1293
0 1565 1424
0 1607 1561
0 1647 1700
0 1684 1828
0 1718 1935
0 1753 2044
0 1787 2154
0 1820 2266
0 1851 2380
0 1883 2493
0 1911 2590
0 1939 2679
0 1966 2762
0 1194 0
0 1193 0
0 1194 0
0 1198 0
0 1209 0
0 1222 5
0 1237 24
0 1257 79
0 1278 152
0 1301 247
0 1328 349
0 1357 455
0 1387 560
0 1418 668
0 1451 780
0 1489 907
0 1525 1034
0 1559 1154
0 1599 1275
0 1641 1404
0 1684 1539
0 1727 1681
0 1766 1811
0 1801 1920
0 1837 2027
0 1872 2137
0 1907 2247
0 1941 2359
0 1973 2472
0 2005 2580
0 2033 2669
0 2061 2752
0 1263 0
0 1264 0
0 1266 0
0 1270 0
0 1281 0
0 1294 2
0 1310 17
0 1329 70
0 1350 142
0 1374 238
0 1400 340
0 1429 446
0 1460 552
0 1491 658
0 1523 768
0 1562 894
0 1599 1020
0 1634 1142
0 1673 1261
0 1716 1386
0 1760 1519
0 1804 1658
0 1846 1794
0 1883 1905
0 1920 2012
0 1957 2120
0 1993 2229
0 2028 2340
0 2061 2452
0 2094 2562
0 2126 2660
0 2154 2743
0 1332 0
0 1334 0
0 1337 0
0 1343 0
0 1354 0
0 1367 2
0 1383 8
0 1402 61
0 1423 132
0 1447 229
0 1473 332
0 1502 437
0 1533 543
0 1564 650
0 1596 757
0 1635 881
0 1673 1006
0 1710 1131
0 1749 1248
0 1791 1370
0 1837 1500
0 1882 1637
0 1925 1771
0 1965 1891
0 2003 1999
0 2041 2105
0 2078 2213
0 2114 2322
0 2149 2432
0 2184 2545
0 2217 2645
0 2248 2733
0 1387 0
0 1393 0
0 1398 0
0 1405 0
0 1418 0
0 1432 0
0 1450 3
0 1471 51
0 1492 122
0 1517 220
0 1545 323
0 1574 429
0 1606 536
0 1638 641
0 1669 748
0 1710 869
0 1749 996
0 1787 1122
0 1825 1235
0 1867 1355
0 1914 1484
0 1961 1617
0 2006 1753
0 2048 1879
0 2087 1986
0 2125 2090
0 2164 2197
0 2202 2305
0 2238 2414
0 2274 2526
0 2309 2632
0 2341 2725
0 1438 0
0 1444 0
0 1453 0
0 1462 0
0 1475 0
0 1491 0
0 1510 0
0 1531 45
0 1554 114
0 1580 212
0 1608 315
0 1638 422
0 1672 529
0 1704 633
0 1736 738
0 1777 859
0 1818 984
0 1857 1113
0 1896 1225
0 1938 1341
0 1986 1467
0 2034 1600
0 2081 1735
0 2125 1865
0 2166 1974
0 2206 2076
0 2246 2182
0 2285 2289
0 2323 2396
0 2361 2507
0 2397 2615
0 2432 2717
0 1485 0
0 1492 0
0 1500 0
0 1511 0
0 1524 0
0 1540 0
0 1559 0
0 1580 42
0 1603 108
0 1628 206
0 1656 309
0 1686 416
0 1720 522
0 1753 626
0 1786 729
0 1829 847
0 1871 972
0 1913 1102
0 1953 1212
0 1996 1328
0 2046 1451
0 2095 1581
0 2144 1715
0 2193 1853
0 2235 1960
0 2276 2062
0 2319 2166
0 2360 2272
0 2401 2379
0 2440 2488
0 2479 2599
0 2517 2707
0 1532 0
0 1540 0
0 1548 0
0 1560 0
0 1573 0
0 1588 0
0 1607 0
0 1628 39
0 1651 103
0 1677 201
0 1704 304
0 1734 410
0 1768 516
0 1801 619
0 1834 721
0 1877 837
0 1920 960
0 1963 1089
0 2003 1201
0 2046 1314
0 2095 1435
0 2146 1562
0 2196 1695
0 2246 1832
0 2291 1946
0 2332 2046
0 2376 2149
0 2418 2254
0 2460 2359
0 2500 2467
0 2540 2576
0 2579 2687
0 1579 0
0 1587 0
0 1597 0
0 1608 0
0 1622 0
0 1637 0
0 1656 0
0 1677 38
0 1699 99
0 1725 196
0 1752 300
0 1781 406
0 1815 511
0 1848 613
0 1881 714
0 1924 829
0 1967 949
0 2010 1076
0 2050 1188
0 2094 1301
0 2143 1420
0 2193 1545
0 2244 1675
0 2294 1811
0 2340 1926
0 2383 2031
0 2427 2133
0 2470 2236
0 2513 2340
0 2554 2446
0 2594 2554
0 2634 2663
0 1625 0
0 1635 0
0 1644 0
0 1657 0
0 1670 0
0 1686 0
0 1704 0
0 1725 36
0 1747 95
0 1772 193
0 1800 297
0 1829 402
0 1862 507
0 1895 608
0 1928 708
0 1970 820
0 2013 940
0 2056 1064
0 2097 1177
0 2141 1290
0 2189 1406
0 2241 1530
0 2292 1658
0 2343 1790
0 2389 1909
0 2434 2017
0 2478 2117
0 2521 2219
0 2564 2322
0 2606 2426
0 2647 2533
0 2688 2641
0 1672 0
0 1682 0
0 1692 0
0 1704 0
0 1719 0
0 1734 0
0 1752 0
0 1773 34
0 1795 93
0 1820 190
0 1847 294
0 1876 400
0 1909 504
0 1942 604
0 1974 703
0 2017 814
0 2060 931
0 2103 1054
0 2145 1168
0 2188 1280
0 2236 1394
0 2287 1515
0 2339 1641
0 2390 1772
0 2439 1894
0 2484 2004
0 2528 2102
0 2572 2203
0 2616 2305
0 2658 2408
0 2700 2513
0 2741 2620
0 1716 0
0 1728 0
0 1739 0
0 1751 0
