lut/Fuji ETERNA 250DKodak 2395(by Adobe).3DL
#Created by: Adobe Photoshop Export Color Lookup Plugin
#Description: -14b15759bd8c6a7d.jpg
0 33 66 99 132 165 198 231 264 297 330 363 396 429 462 495 528 561 594 627 660 693 726 759 792 825 858 891 924 957 990 1023
606 517 432
604 519 456
601 524 500
597 532 569
590 542 679
582 553 802
574 563 942
565 570 1106
557 575 1276
551 576 1442
550 573 1595
551 568 1743
556 557 1900
572 546 2041
595 533 2170
617 519 2280
643 503 2389
671 486 2498
707 469 2588
741 454 2663
772 443 2718
800 430 2771
827 417 2824
854 403 2875
887 389 2926
920 375 2976
948 359 3025
976 342 3073
1003 325 3119
1029 312 3154
1055 300 3183
1080 291 3207
617 577 444
611 547 450
608 547 479
604 550 530
599 554 596
592 563 700
585 571 814
578 577 931
570 583 1082
563 587 1227
557 588 1376
556 585 1518
556 581 1648
561 574 1783
576 564 1909
591 556 2037
611 544 2147
634 530 2257
654 520 2348
686 505 2437
715 494 2512
747 480 2595
776 467 2661
805 453 2731
833 441 2785
865 427 2838
894 415 2891
926 401 2943
956 385 2993
985 371 3043
1012 357 3087
1038 345 3123
626 663 459
621 619 465
615 595 481
611 593 516
606 593 574
601 596 646
594 602 744
586 606 854
579 611 968
572 615 1102
565 617 1239
559 617 1379
558 614 1507
560 610 1626
565 604 1746
578 597 1870
593 588 1996
611 578 2107
629 568 2199
651 557 2288
678 546 2377
710 533 2464
742 520 2551
772 505 2630
801 493 2696
829 481 2751
858 470 2805
891 458 2860
925 445 2913
955 432 2965
984 418 3016
1012 403 3067
635 780 478
630 720 483
625 682 498
620 664 526
615 661 580
609 659 646
601 660 729
593 663 838
584 666 953
576 667 1073
568 668 1205
561 668 1339
557 665 1470
558 660 1591
563 655 1706
574 648 1823
587 639 1945
603 630 2070
620 620 2163
641 610 2252
667 600 2339
698 588 2425
730 576 2511
761 562 2595
790 549 2667
818 537 2730
846 526 2784
879 515 2837
914 503 2891
946 491 2943
976 479 2994
1004 465 3044
630 909 495
632 821 499
628 776 513
623 753 541
618 744 590
611 740 652
603 738 731
593 738 839
584 740 953
574 739 1069
564 739 1197
556 738 1330
549 734 1462
551 728 1583
556 722 1697
565 715 1810
578 708 1929
593 699 2052
609 689 2154
630 679 2244
656 668 2331
688 657 2416
720 646 2501
751 633 2585
781 619 2665
810 607 2732
839 596 2785
872 585 2838
908 574 2891
942 563 2943
973 551 2994
1001 538 3044
615 1050 511
624 953 516
625 886 530
621 859 556
616 844 605
609 833 663
601 828 739
590 825 844
579 822 957
568 821 1070
557 817 1195
547 815 1327
540 810 1458
540 805 1581
545 798 1695
553 791 1807
565 783 1922
579 775 2042
595 764 2146
617 754 2242
643 744 2330
675 733 2415
708 722 2499
740 709 2582
771 696 2662
801 682 2738
831 671 2791
865 661 2844
901 650 2896
936 639 2948
969 627 2999
998 616 3048
581 1210 524
603 1102 533
611 1028 548
610 991 575
605 969 622
599 952 679
592 937 750
580 929 854
567 922 965
556 913 1076
544 907 1200
532 901 1329
526 895 1460
525 890 1583
529 885 1700
535 878 1811
546 870 1924
560 861 2040
576 851 2148
597 840 2247
626 829 2335
659 818 2420
693 806 2503
726 794 2585
758 780 2667
789 767 2743
821 755 2802
856 744 2856
893 733 2908
930 722 2959
963 710 3009
995 698 3058
515 1376 533
556 1273 547
573 1191 565
576 1149 592
574 1117 641
568 1094 697
562 1074 768
548 1058 870
535 1048 980
523 1037 1091
508 1030 1215
496 1022 1344
489 1014 1473
488 1006 1598
491 999 1716
499 988 1825
511 978 1936
526 967 2049
543 953 2161
567 941 2260
600 929 2348
637 914 2432
672 901 2515
707 887 2596
740 875 2676
773 862 2755
806 850 2820
843 839 2874
881 829 2926
919 818 2977
955 807 3027
988 796 3076
427 1537 539
480 1439 557
513 1363 579
523 1314 608
524 1281 658
521 1250 717
515 1224 787
501 1205 889
486 1188 999
473 1176 1110
456 1165 1233
441 1157 1363
435 1147 1492
434 1136 1616
437 1125 1736
446 1111 1845
461 1097 1954
478 1083 2063
497 1069 2176
525 1054 2279
562 1040 2365
602 1025 2450
642 1010 2533
679 994 2612
715 980 2692
750 967 2771
785 956 2840
825 944 2898
865 934 2949
904 924 2999
942 913 3049
978 902 3099
299 1683 541
375 1598 565
417 1527 590
436 1481 621
439 1450 674
439 1420 734
435 1391 806
419 1370 909
402 1352 1019
387 1334 1131
366 1320 1255
348 1308 1384
345 1293 1512
345 1279 1637
348 1264 1758
362 1247 1867
379 1231 1976
402 1213 2084
428 1200 2200
459 1186 2304
503 1173 2391
547 1159 2477
590 1144 2561
632 1130 2641
672 1115 2720
710 1102 2799
753 1087 2874
795 1074 2931
839 1062 2982
883 1049 3031
923 1037 3080
962 1025 3129
143 1827 540
212 1748 569
274 1681 598
300 1636 631
309 1605 687
309 1577 750
304 1549 823
282 1530 927
261 1511 1038
238 1495 1152
212 1481 1277
191 1467 1406
185 1452 1535
183 1436 1661
186 1419 1783
204 1401 1893
227 1383 2002
254 1365 2111
301 1348 2224
347 1332 2331
402 1317 2419
465 1300 2505
514 1285 2589
564 1269 2669
614 1252 2748
657 1236 2827
707 1221 2904
757 1205 2964
804 1191 3015
851 1179 3064
896 1167 3113
937 1154 3161
0 1967 538
56 1892 569
106 1831 604
150 1786 640
161 1755 698
165 1726 763
159 1701 839
140 1682 943
117 1666 1056
85 1652 1171
59 1639 1297
32 1627 1428
24 1611 1557
20 1595 1684
19 1579 1807
37 1561 1919
58 1543 2030
91 1524 2139
138 1506 2252
191 1488 2357
267 1470 2448
339 1451 2534
412 1432 2618
472 1413 2699
532 1394 2777
589 1376 2855
646 1359 2934
704 1342 2996
760 1325 3048
810 1313 3098
859 1300 3147
904 1288 3195
0 2084 535
0 2025 570
26 1970 607
40 1932 649
44 1903 709
47 1874 776
46 1848 853
45 1829 959
34 1813 1073
31 1797 1189
22 1784 1315
9 1771 1446
9 1758 1577
6 1743 1704
5 1729 1829
5 1713 1943
13 1697 2054
25 1680 2164
27 1664 2277
49 1647 2383
68 1628 2479
142 1609 2565
221 1590 2649
313 1572 2731
395 1554 2811
469 1536 2889
550 1519 2968
617 1502 3034
682 1486 3089
746 1470 3138
800 1456 3187
852 1442 3235
0 2202 531
0 2144 568
0 2097 611
0 2063 656
0 2037 718
0 2012 787
0 1988 867
0 1972 974
0 1956 1089
0 1941 1207
0 1927 1333
0 1914 1464
0 1901 1596
0 1887 1724
0 1873 1849
0 1858 1964
0 1843 2077
0 1828 2188
0 1813 2300
0 1797 2408
0 1779 2505
18 1762 2593
70 1744 2678
138 1726 2761
199 1710 2842
298 1692 2921
400 1677 3000
503 1660 3070
577 1644 3128
655 1627 3177
725 1611 3225
782 1596 3273
0 2320 525
0 2263 565
0 2217 610
0 2185 663
0 2161 726
0 2139 797
0 2120 880
0 2107 988
0 2095 1104
0 2082 1223
0 2069 1351
0 2055 1482
0 2042 1614
0 2029 1743
0 2015 1868
0 1999 1984
0 1984 2098
0 1970 2209
0 1955 2321
0 1940 2429
0 1925 2530
0 1908 2618
0 1892 2704
0 1876 2789
28 1861 2871
80 1846 2951
212 1831 3031
332 1816 3101
450 1799 3164
541 1782 3213
625 1766 3262
700 1750 3310
0 2434 518
0 2387 562
0 2342 611
0 2310 669
0 2284 735
0 2262 808
0 2242 895
0 2227 1003
0 2215 1119
0 2204 1239
0 2194 1367
0 2184 1499
0 2175 1632
0 2164 1761
0 2153 1887
0 2139 2005
0 2123 2118
0 2108 2230
0 2094 2342
0 2079 2450
0 2064 2552
0 2047 2641
0 2031 2727
0 2015 2813
0 2000 2895
20 1985 2976
40 1971 3056
134 1957 3129
237 1942 3194
386 1927 3245
489 1912 3295
581 1897 3343
0 2536 514
0 2496 560
0 2461 613
0 2430 674
0 2409 743
0 2386 820
0 2366 909
0 2350 1018
0 2337 1134
0 2326 1256
0 2316 1384
0 2308 1516
0 2299 1649
0 2290 1778
0 2281 1904
0 2269 2023
0 2257 2138
0 2242 2249
0 2230 2362
0 2217 2471
0 2202 2574
0 2186 2663
0 2169 2749
0 2153 2835
0 2138 2919
0 2123 3000
0 2109 3080
11 2095 3155
77 2081 3223
168 2066 3275
313 2052 3325
424 2038 3374
0 2625 512
0 2592 562
0 2564 617
0 2545 680
0 2529 749
0 2512 828
0 2492 923
0 2476 1033
0 2462 1149
0 2449 1273
0 2439 1402
0 2429 1533
0 2419 1665
0 2409 1794
0 2399 1921
0 2389 2040
0 2379 2155
0 2369 2268
0 2360 2381
0 2349 2490
0 2339 2595
0 2323 2685
0 2307 2771
0 2291 2857
0 2276 2941
0 2261 3024
0 2247 3104
0 2232 3180
4 2218 3251
4 2203 3303
89 2188 3353
228 2174 3402
0 2707 510
0 2681 571
0 2655 627
0 2638 691
0 2624 759
0 2612 841
0 2599 939
0 2591 1049
0 2580 1166
0 2574 1291
0 2563 1420
0 2553 1551
0 2544 1684
0 2534 1813
0 2524 1939
0 2513 2058
0 2502 2174
0 2492 2286
0 2481 2398
0 2470 2508
0 2459 2613
0 2445 2703
0 2431 2790
0 2418 2877
0 2405 2962
0 2392 3045
0 2380 3126
0 2368 3204
0 2355 3277
0 2340 3330
0 2324 3380
84 2310 3429
0 2788 508
0 2764 574
0 2743 639
0 2727 702
0 2714 772
0 2704 854
0 2697 955
0 2692 1066
0 2688 1183
0 2685 1309
0 2681 1439
0 2672 1570
0 2665 1702
0 2659 1831
0 2648 1957
0 2637 2077
0 2626 2192
0 2614 2304
0 2603 2417
0 2591 2526
0 2579 2631
0 2566 2721
0 2553 2809
0 2542 2896
0 2530 2982
0 2519 3066
0 2508 3147
0 2497 3226
0 2486 3302
0 2471 3355
0 2457 3406
0 2442 3455
0 2869 505
0 2847 579
0 2828 648
0 2813 715
0 2802 787
0 2792 869
0 2787 974
0 2783 1084
0 2780 1200
0 2780 1327
0 2780 1457
0 2779 1588
0 2779 1721
0 2776 1850
0 2773 1976
0 2762 2095
0 2750 2211
0 2738 2323
0 2726 2435
0 2714 2545
0 2702 2650
0 2689 2740
0 2676 2828
0 2664 2915
0 2653 3001
0 2641 3085
0 2630 3166
0 2618 3247
0 2607 3324
0 2594 3377
0 2581 3429
0 2569 3479
0 2945 516
0 2931 586
0 2914 659
0 2900 728
0 2890 805
0 2881 888
0 2876 993
0 2872 1102
0 2869 1218
0 2869 1347
0 2870 1476
0 2871 1607
0 2871 1739
0 2871 1866
0 2869 1992
0 2866 2112
0 2859 2228
0 2850 2340
0 2846 2453
0 2835 2563
0 2825 2669
0 2812 2759
0 2799 2847
0 2787 2934
0 2775 3020
0 2763 3105
0 2752 3186
0 2740 3266
0 2728 3344
0 2715 3399
0 2702 3451
0 2690 3501
0 3016 531
0 3005 601
0 2995 670
0 2982 741
0 2976 821
0 2969 908
0 2964 1013
0 2960 1122
0 2957 1237
0 2958 1366
0 2959 1496
0 2960 1625
0 2960 1757
0 2960 1884
0 2959 2008
0 2957 2128
0 2955 2244
0 2952 2357
0 2950 2470
0 2946 2580
0 2939 2686
0 2929 2777
0 2919 2865
0 2906 2952
0 2896 3039
0 2885 3124
0 2873 3205
0 2862 3285
0 2850 3363
0 2837 3419
0 2823 3472
0 2811 3523
0 3074 550
0 3067 621
0 3061 689
0 3055 756
0 3056 840
0 3054 930
0 3052 1034
0 3048 1144
0 3046 1259
0 3046 1388
0 3047 1516
0 3047 1645
0 3048 1776
0 3047 1901
0 3046 2024
0 3044 2144
0 3042 2259
0 3039 2371
0 3037 2484
0 3034 2594
0 3032 2700
0 3027 2792
0 3020 2880
0 3016 2968
0 3009 3056
0 3002 3142
0 2993 3223
0 2982 3304
0 2971 3382
0 2958 3439
0 2945 3493
0 2932 3545
0 3131 568
0 3126 641
0 3122 712
0 3119 780
0 3120 865
0 3123 955
0 3124 1057
0 3129 1171
0 3128 1285
0 3133 1410
0 3134 1538
0 3134 1666
0 3134 1795
0 3133 1919
0 3132 2041
0 3130 2160
0 3128 2275
0 3125 2387
0 3124 2499
0 3121 2609
0 3119 2714
0 3115 2805
0 3110 2893
0 3105 2981
0 3101 3069
0 3096 3156
0 3090 3238
0 3084 3319
0 3074 3397
0 3065 3457
0 3056 3512
0 3044 3564
0 3188 587
0 3184 660
0 3181 735
0 3179 806
0 3181 891
0 3185 982
0 3189 1082
0 3196 1195
0 3203 1312
0 3212 1435
0 3216 1560
0 3218 1688
0 3219 1816
0 3219 1939
0 3217 2059
0 3215 2177
0 3214 2292
0 3211 2403
0 3210 2515
0 3208 2624
0 3206 2728
0 3201 2819
0 3196 2907
0 3192 2994
0 3187 3082
0 3182 3168
0 3177 3250
0 3173 3332
0 3168 3411
0 3161 3471
0 3155 3528
0 3149 3582
0 3245 611
0 3241 682
0 3239 758
0 3239 835
0 3242 921
0 3245 1011
0 3249 1108
0 3256 1221
0 3264 1339
0 3272 1459
0 3281 1583
0 3287 1710
0 3296 1837
0 3299 1959
0 3301 2077
0 3301 2194
0 3299 2309
0 3298 2419
0 3296 2531
0 3294 2639
0 3291 2743
0 3287 2833
0 3282 2920
0 3277 3007
0 3272 3094
0 3267 3181
0 3262 3263
0 3257 3344
0 3252 3423
0 3246 3485
0 3240 3542
0 3234 3595
0 3301 638
0 3298 712
0 3297 787
0 3298 866
0 3301 951
0 3304 1040
0 3308 1135
0 3316 1249
0 3324 1366
0 3332 1485
0 3341 1607
0 3350 1732
0 3359 1858
0 3367 1978
0 3371 2095
0 3375 2212
0 3378 2326
0 3378 2436
0 3380 2548
0 3378 2655
0 3375 2757
0 3370 2846
0 3366 2934
0 3361 3021
0 3356 3107
0 3351 3193
0 3346 3276
0 3341 3357
0 3336 3436
0 3331 3498
0 3325 3555
0 3319 3609
0 3356 665
0 3355 742
0 3355 820
0 3357 900
