lut/Fuji REALA 500D Kodak 2393 (by Adobe).3DL
#Created by: Adobe Photoshop Export Color Lookup Plugin
#Description: -14b15759bd8c6a7d.jpg
0 33 66 99 132 165 198 231 264 297 330 363 396 429 462 495 528 561 594 627 660 693 726 759 792 825 858 891 924 957 990 1023
20 14 16
19 14 22
17 15 39
12 17 69
5 18 157
0 17 261
0 14 382
0 10 481
0 5 576
0 1 678
0 0 777
0 0 872
0 0 941
1 0 1008
4 0 1072
14 0 1144
26 0 1217
40 0 1292
53 0 1351
69 0 1412
88 0 1475
112 0 1537
138 0 1601
166 0 1666
203 0 1738
244 0 1812
292 0 1887
342 0 1955
393 0 2020
445 0 2083
498 0 2150
552 0 2221
20 23 17
19 20 20
17 21 30
14 22 51
8 24 87
2 26 174
0 26 275
0 25 381
0 22 478
0 19 579
0 15 686
0 12 790
0 6 897
0 2 978
1 0 1053
2 0 1127
7 0 1205
14 0 1284
14 0 1369
22 0 1436
29 0 1506
48 0 1575
71 0 1642
96 0 1712
128 0 1785
167 0 1861
213 0 1939
266 0 2016
320 0 2087
382 0 2157
440 0 2222
498 0 2291
14 49 20
15 39 23
13 37 30
10 38 44
7 40 77
3 43 129
1 46 217
0 48 320
0 49 421
0 47 522
0 46 630
0 42 741
0 36 856
0 30 964
0 25 1053
0 24 1131
0 22 1210
0 22 1295
0 21 1381
0 19 1468
0 19 1544
7 19 1618
20 20 1689
40 20 1761
56 22 1835
85 23 1911
122 25 1990
176 29 2068
234 30 2147
299 34 2221
371 43 2290
434 43 2357
1 95 23
4 76 26
4 66 34
1 65 46
1 68 77
0 72 127
0 77 207
0 81 311
0 85 417
0 87 516
0 88 626
0 88 739
0 87 857
0 83 969
0 80 1075
0 77 1159
0 75 1243
0 72 1328
0 69 1416
0 66 1504
0 62 1594
0 62 1673
2 62 1748
2 64 1818
4 68 1891
10 72 1965
24 79 2043
71 86 2121
131 94 2199
201 107 2277
277 121 2349
357 137 2417
0 171 24
0 138 29
2 125 37
0 123 50
0 126 81
0 132 130
0 139 209
0 150 314
0 156 422
0 163 524
0 169 633
0 172 748
0 176 868
0 178 985
0 177 1096
0 179 1198
0 180 1282
0 180 1367
0 183 1453
0 182 1542
0 182 1633
0 185 1725
0 188 1801
0 193 1872
0 201 1942
0 208 2015
4 218 2091
9 229 2167
49 240 2244
71 254 2320
155 269 2397
242 286 2467
0 258 24
0 223 30
0 201 39
0 196 53
0 199 85
0 206 134
0 215 212
0 228 317
0 239 427
0 249 530
0 258 639
0 266 755
0 273 879
0 280 999
0 284 1115
0 289 1221
0 293 1320
0 297 1403
0 302 1490
0 307 1578
0 311 1669
0 316 1762
0 322 1852
0 331 1923
0 341 1992
0 351 2063
0 363 2138
0 376 2212
0 390 2288
8 405 2363
31 421 2438
127 437 2513
0 360 23
0 323 30
0 300 40
0 293 55
0 295 88
0 301 137
0 312 215
0 326 322
0 340 433
0 351 537
0 362 643
0 372 755
0 384 887
0 393 1011
0 401 1131
0 409 1241
0 415 1343
0 422 1437
0 429 1522
0 436 1610
0 443 1701
0 451 1794
0 459 1885
0 468 1969
0 479 2039
0 491 2109
0 504 2182
0 518 2256
0 532 2330
0 548 2404
2 565 2479
21 582 2553
0 442 20
0 415 28
0 394 39
0 388 56
0 394 90
0 401 140
0 413 219
0 430 324
0 446 437
0 460 545
0 473 650
0 484 761
0 499 895
0 511 1023
0 521 1145
0 532 1259
0 541 1369
0 549 1469
0 558 1554
0 566 1642
0 575 1733
0 586 1827
0 595 1919
0 605 2007
0 617 2084
0 629 2153
0 643 2225
0 656 2298
0 671 2371
0 685 2443
0 700 2515
0 716 2588
0 522 16
0 496 25
0 482 38
0 480 55
0 485 90
0 495 142
0 510 222
0 527 326
0 546 439
0 562 550
0 577 656
0 591 767
0 607 902
0 622 1032
0 635 1157
0 647 1272
0 659 1385
0 670 1496
0 679 1583
0 689 1670
0 700 1761
0 711 1855
0 722 1948
0 733 2039
0 745 2120
0 757 2194
0 771 2265
0 785 2335
0 799 2407
0 812 2478
0 826 2549
0 841 2620
0 615 11
0 580 21
0 563 35
0 560 54
0 566 91
0 575 143
0 590 223
0 608 327
0 627 438
0 646 553
0 661 659
0 676 768
0 694 904
0 711 1035
0 727 1161
0 741 1279
0 754 1394
0 766 1507
0 777 1599
0 787 1688
0 799 1779
0 810 1871
0 822 1964
0 834 2055
0 846 2142
0 858 2222
0 871 2291
0 885 2361
0 899 2431
0 913 2501
0 927 2571
0 942 2641
0 719 5
0 690 14
0 668 30
0 665 51
0 669 89
0 676 144
0 689 225
0 705 330
0 724 442
0 741 557
0 755 664
0 771 772
0 789 906
0 806 1040
0 823 1168
0 837 1287
0 850 1402
0 862 1516
0 875 1617
0 886 1707
0 897 1797
0 910 1888
0 922 1981
0 934 2072
0 948 2164
0 961 2248
0 974 2318
0 989 2387
0 1003 2457
0 1018 2526
0 1034 2596
0 1049 2665
0 825 0
0 800 7
0 784 23
0 780 46
0 782 86
0 789 143
0 799 227
0 814 333
0 830 446
0 846 563
0 860 671
0 874 777
0 892 909
0 909 1043
0 926 1176
0 940 1297
0 953 1413
0 966 1525
0 979 1631
0 991 1728
0 1003 1817
0 1015 1908
0 1029 2000
0 1041 2091
0 1056 2184
0 1070 2275
0 1084 2347
0 1099 2417
0 1115 2485
0 1131 2554
0 1148 2623
0 1165 2692
0 924 0
0 907 0
0 893 15
0 890 39
0 893 81
0 900 140
0 913 227
0 930 335
0 949 450
0 969 572
0 985 680
0 1000 787
0 1020 915
0 1039 1052
0 1058 1189
0 1074 1313
0 1090 1431
0 1104 1544
0 1120 1659
0 1133 1758
0 1146 1846
0 1160 1937
0 1174 2029
0 1189 2122
0 1204 2214
0 1220 2306
0 1236 2388
0 1251 2457
0 1266 2525
0 1283 2592
0 1300 2661
0 1317 2730
0 1024 0
0 1008 0
0 998 8
0 997 31
0 1002 76
0 1011 137
0 1024 227
0 1044 338
0 1064 455
0 1086 579
0 1104 688
0 1121 795
0 1141 921
0 1163 1061
0 1184 1201
0 1203 1327
0 1220 1446
0 1236 1560
0 1252 1677
0 1267 1783
0 1281 1872
0 1295 1962
0 1310 2054
0 1326 2148
0 1343 2240
0 1359 2333
0 1376 2420
0 1392 2492
0 1408 2559
0 1424 2626
0 1441 2693
0 1459 2761
0 1124 0
0 1110 0
0 1102 7
0 1102 24
0 1109 69
0 1119 133
0 1135 227
0 1156 340
0 1178 459
0 1201 585
0 1220 696
0 1237 803
0 1258 926
0 1281 1065
0 1306 1213
0 1326 1341
0 1345 1461
0 1362 1574
0 1379 1692
0 1395 1801
0 1409 1894
0 1424 1984
0 1440 2076
0 1457 2171
0 1474 2263
0 1491 2355
0 1509 2447
0 1525 2523
0 1541 2590
0 1558 2656
0 1575 2723
0 1593 2790
0 1214 0
0 1208 0
0 1203 3
0 1207 13
0 1217 62
0 1229 129
0 1246 227
0 1266 343
0 1288 465
0 1311 593
0 1330 704
0 1348 811
0 1370 934
0 1394 1076
0 1419 1225
0 1440 1355
0 1459 1475
0 1477 1587
0 1495 1705
0 1512 1816
0 1528 1915
0 1545 2006
0 1561 2098
0 1579 2192
0 1597 2284
0 1614 2375
0 1632 2466
0 1649 2548
0 1666 2617
0 1683 2683
0 1700 2749
0 1718 2815
0 1303 0
0 1298 0
0 1298 0
0 1304 6
0 1316 55
0 1330 126
0 1348 226
0 1371 346
0 1393 471
0 1417 600
0 1438 712
0 1456 820
0 1479 942
0 1505 1085
0 1531 1238
0 1553 1368
0 1574 1489
0 1591 1601
0 1611 1719
0 1631 1833
0 1648 1936
0 1666 2028
0 1684 2120
0 1702 2213
0 1719 2305
0 1737 2395
0 1755 2486
0 1773 2571
0 1790 2645
0 1807 2709
0 1824 2774
0 1842 2840
0 1390 0
0 1386 0
0 1388 0
0 1395 0
0 1407 49
0 1422 121
0 1441 226
0 1465 349
0 1491 477
0 1517 607
0 1539 720
0 1560 829
0 1584 951
0 1611 1094
0 1640 1250
0 1664 1381
0 1685 1503
0 1706 1615
0 1727 1733
0 1749 1848
0 1770 1958
0 1789 2051
0 1807 2142
0 1825 2234
0 1843 2325
0 1861 2416
0 1879 2505
0 1897 2591
0 1914 2672
0 1931 2736
0 1949 2800
0 1966 2864
0 1484 0
0 1484 0
0 1485 0
0 1492 0
0 1505 44
0 1519 119
0 1538 227
0 1562 355
0 1587 484
0 1613 615
0 1635 729
0 1655 837
0 1678 958
0 1706 1103
0 1736 1261
0 1760 1393
0 1783 1515
0 1804 1628
0 1826 1745
0 1848 1862
0 1870 1976
0 1888 2068
0 1907 2159
0 1926 2250
0 1944 2341
0 1963 2431
0 1981 2520
0 2001 2609
0 2019 2693
0 2036 2756
0 2054 2820
0 2071 2884
0 1579 0
0 1580 0
0 1583 0
0 1590 0
0 1603 42
0 1618 116
0 1636 228
0 1660 359
0 1684 492
0 1710 623
0 1731 737
0 1752 846
0 1775 967
0 1803 1114
0 1833 1273
0 1858 1405
0 1881 1528
0 1903 1642
0 1925 1758
0 1947 1877
0 1969 1993
0 1988 2086
0 2006 2175
0 2025 2266
0 2044 2356
0 2063 2446
0 2082 2534
0 2101 2623
0 2121 2711
0 2138 2776
0 2156 2839
0 2174 2902
0 1674 0
0 1678 0
0 1682 0
0 1689 0
0 1702 39
0 1718 110
0 1736 230
0 1759 364
0 1784 500
0 1808 631
0 1829 745
0 1850 855
0 1874 978
0 1903 1125
0 1934 1287
0 1959 1419
0 1982 1542
0 2004 1656
0 2026 1773
0 2048 1891
0 2070 2011
0 2088 2103
0 2106 2192
0 2125 2282
0 2144 2372
0 2163 2462
0 2182 2549
0 2201 2637
0 2220 2723
0 2238 2793
0 2255 2858
0 2273 2920
0 1760 0
0 1770 0
0 1778 0
0 1787 0
0 1802 34
0 1818 108
0 1837 233
0 1862 373
0 1887 510
0 1912 640
0 1934 755
0 1955 866
0 1978 990
0 2007 1139
0 2039 1302
0 2063 1434
0 2086 1557
0 2107 1671
0 2129 1787
0 2150 1905
0 2172 2026
0 2191 2121
0 2209 2209
0 2227 2298
0 2246 2388
0 2265 2478
0 2283 2564
0 2302 2651
0 2321 2738
0 2339 2812
0 2357 2877
0 2374 2938
0 1843 0
0 1854 0
0 1867 0
0 1879 0
0 1895 34
0 1914 107
0 1934 238
0 1960 381
0 1987 520
0 2012 650
0 2035 766
0 2057 877
0 2081 1003
0 2110 1153
0 2142 1318
0 2166 1450
0 2189 1573
0 2210 1687
0 2231 1802
0 2253 1919
0 2275 2040
0 2294 2137
0 2312 2227
0 2330 2315
0 2349 2405
0 2368 2494
0 2386 2580
0 2405 2666
0 2423 2752
0 2442 2829
0 2459 2896
0 2476 2957
0 1922 0
0 1932 0
0 1945 0
0 1960 0
0 1978 34
0 1997 108
0 2021 249
0 2048 393
0 2076 535
0 2102 661
0 2126 777
0 2150 889
0 2178 1017
0 2208 1168
0 2241 1333
0 2266 1465
0 2289 1588
0 2311 1702
0 2332 1817
0 2354 1934
0 2377 2054
0 2396 2153
0 2415 2245
0 2434 2333
0 2453 2422
0 2472 2510
0 2490 2595
0 2509 2681
0 2527 2766
0 2546 2848
0 2563 2916
0 2580 2975
0 2000 0
0 2012 0
0 2025 0
0 2040 0
0 2057 37
0 2077 115
0 2101 261
0 2128 409
0 2156 550
0 2181 674
0 2205 789
0 2229 902
0 2257 1032
0 2288 1183
0 2322 1349
0 2348 1480
0 2373 1603
0 2395 1717
0 2418 1831
0 2441 1948
0 2464 2067
0 2486 2168
0 2505 2261
0 2525 2349
0 2545 2437
0 2564 2525
0 2583 2610
0 2603 2695
0 2622 2781
0 2642 2865
0 2659 2934
0 2676 2993
0 2079 0
0 2091 0
0 2104 0
0 2120 0
0 2137 40
0 2156 122
0 2180 274
0 2207 425
0 2233 566
0 2257 688
0 2280 801
0 2304 915
0 2331 1046
0 2363 1198
0 2397 1364
0 2424 1495
0 2449 1618
0 2473 1731
0 2496 1845
0 2520 1961
0 2544 2080
0 2566 2182
0 2587 2276
0 2607 2364
0 2627 2452
0 2648 2539
0 2668 2624
0 2688 2709
0 2709 2793
0 2729 2879
0 2748 2950
0 2764 3008
0 2158 0
0 2172 0
0 2185 0
0 2201 0
0 2217 47
0 2237 133
0 2260 292
0 2286 444
0 2312 586
0 2334 700
0 2356 814
0 2379 929
0 2406 1063
0 2438 1215
0 2471 1380
0 2497 1511
0 2522 1633
0 2545 1745
0 2568 1859
0 2591 1974
0 2615 2092
0 2636 2195
0 2657 2290
0 2676 2377
0 2696 2464
0 2716 2551
0 2736 2635
0 2756 2719
0 2776 2803
0 2795 2887
0 2813 2959
0 2829 3019
0 2239 0
0 2253 0
0 2267 0
0 2282 0
0 2299 57
0 2318 149
0 2341 310
0 2366 464
0 2391 604
0 2412 716
0 2433 828
0 2455 943
0 2483 1080
0 2513 1232
0 2546 1396
0 2571 1527
0 2595 1648
0 2618 1760
0 2640 1873
0 2663 1987
0 2686 2105
0 2707 2209
0 2727 2304
0 2746 2390
0 2766 2476
0 2785 2563
0 2804 2647
0 2822 2729
0 2842 2812
0 2860 2895
0 2877 2968
0 2893 3029
0 2321 0
0 2336 0
0 2350 0
0 2364 0
