lut/Kodak 5218 Kodak 2395 (by Adobe).3DL
#Created by: Adobe Photoshop Export Color Lookup Plugin
#Description: -14b15759bd8c6a7d.jpg
0 33 66 99 132 165 198 231 264 297 330 363 396 429 462 495 528 561 594 627 660 693 726 759 792 825 858 891 924 957 990 1023
523 493 423
518 496 460
512 501 520
503 509 611
494 518 712
485 527 819
476 536 935
468 543 1063
460 549 1197
451 552 1334
442 553 1471
434 552 1609
426 548 1752
420 542 1881
414 536 2001
410 532 2108
406 527 2213
404 521 2314
402 516 2401
401 517 2482
400 524 2555
401 530 2627
402 536 2698
403 542 2768
404 550 2832
405 560 2890
408 578 2932
409 598 2973
409 620 3014
409 642 3054
408 664 3093
407 686 3132
534 523 430
529 521 459
524 526 510
517 533 588
510 542 671
502 551 771
494 560 878
484 570 1001
475 579 1134
464 587 1273
454 593 1417
444 596 1559
434 600 1707
424 599 1852
417 596 1982
409 597 2097
405 595 2206
403 592 2312
400 592 2413
398 593 2495
396 599 2568
392 609 2642
392 616 2715
393 625 2787
393 634 2857
393 644 2916
394 660 2959
394 677 2999
395 697 3040
400 714 3079
404 737 3119
406 760 3159
548 571 439
543 565 469
538 565 514
531 572 582
524 580 661
517 589 750
510 599 852
500 610 970
489 621 1099
477 631 1239
465 640 1383
453 648 1530
442 654 1679
430 659 1829
419 660 1974
411 663 2090
402 665 2205
399 665 2315
394 667 2420
392 670 2510
389 676 2584
386 684 2658
382 693 2732
382 702 2806
381 711 2877
382 723 2941
381 739 2986
383 757 3027
383 775 3067
388 793 3107
393 813 3146
399 837 3187
565 639 452
560 629 482
554 626 527
548 630 591
541 637 669
533 646 755
524 656 856
514 668 973
503 679 1099
489 691 1239
475 702 1383
462 711 1528
448 719 1677
435 724 1829
422 729 1980
412 733 2097
402 737 2213
393 740 2328
385 744 2436
380 748 2530
378 754 2604
376 761 2678
374 768 2752
372 775 2825
370 783 2897
368 793 2963
369 812 3010
372 832 3054
375 852 3095
379 874 3136
382 895 3177
386 917 3217
583 721 465
576 705 498
570 701 543
563 704 608
556 711 684
548 719 769
538 729 870
527 740 985
514 751 1110
500 763 1249
484 774 1391
469 783 1536
452 791 1685
435 797 1838
420 802 1990
409 806 2109
398 812 2227
388 816 2343
377 822 2454
370 828 2550
365 835 2627
362 845 2702
360 853 2776
358 863 2851
356 873 2925
355 883 2992
357 899 3042
359 917 3084
362 936 3126
365 955 3166
368 975 3205
371 995 3245
605 813 479
598 797 514
590 788 562
583 791 626
573 796 702
563 803 787
553 812 887
541 823 1001
527 834 1125
511 846 1264
494 856 1405
477 866 1548
458 874 1697
439 881 1850
420 887 2004
407 892 2125
394 897 2244
382 903 2362
370 909 2474
361 916 2573
354 925 2652
351 934 2727
348 944 2803
345 954 2878
342 965 2952
342 977 3022
343 991 3073
345 1006 3117
347 1023 3157
349 1042 3197
349 1061 3236
351 1079 3275
634 923 493
628 908 532
620 899 582
609 897 648
597 901 724
585 906 809
570 913 908
556 923 1022
541 934 1145
523 945 1284
505 956 1425
486 966 1567
465 976 1717
444 984 1869
423 991 2023
407 998 2148
392 1003 2269
377 1009 2388
364 1015 2500
354 1022 2601
347 1029 2684
342 1037 2759
339 1046 2834
335 1054 2909
331 1064 2983
329 1075 3052
328 1086 3105
329 1100 3149
330 1115 3190
327 1134 3230
324 1154 3270
322 1174 3309
663 1050 508
659 1031 550
652 1020 603
640 1017 671
629 1017 748
616 1021 833
601 1027 932
584 1035 1046
567 1045 1169
547 1056 1308
525 1066 1448
505 1077 1590
480 1086 1739
455 1095 1892
432 1103 2045
411 1109 2174
392 1116 2297
375 1122 2416
357 1129 2530
344 1135 2632
334 1143 2717
323 1151 2793
317 1160 2868
308 1169 2943
298 1180 3018
292 1190 3088
286 1203 3143
281 1217 3189
280 1231 3230
278 1249 3270
278 1267 3309
275 1288 3348
695 1185 521
690 1164 567
683 1150 624
672 1145 694
660 1144 773
647 1145 858
632 1150 956
614 1157 1071
594 1166 1195
572 1176 1334
548 1186 1474
524 1196 1615
496 1205 1765
467 1214 1917
439 1222 2070
414 1229 2201
389 1236 2326
368 1242 2445
346 1249 2560
326 1256 2665
312 1264 2752
299 1273 2829
286 1282 2904
274 1292 2980
260 1302 3054
248 1314 3126
238 1326 3182
230 1340 3230
223 1355 3273
222 1372 3312
221 1389 3350
223 1407 3389
733 1327 531
725 1306 584
715 1292 644
701 1286 718
687 1285 799
672 1286 885
656 1289 983
636 1296 1099
615 1305 1224
588 1315 1364
562 1324 1504
534 1334 1645
501 1343 1795
468 1352 1948
434 1361 2101
401 1368 2234
372 1374 2359
343 1381 2479
312 1387 2596
288 1394 2701
267 1401 2792
251 1409 2869
236 1418 2944
220 1427 3019
205 1437 3094
191 1448 3166
181 1459 3225
175 1472 3274
170 1486 3317
169 1500 3355
168 1516 3394
168 1533 3432
781 1463 541
771 1446 601
760 1433 664
745 1427 739
728 1427 824
711 1428 911
694 1431 1010
670 1438 1128
646 1446 1254
617 1456 1394
586 1466 1535
556 1476 1677
519 1485 1826
479 1495 1979
441 1503 2133
403 1510 2267
366 1517 2394
333 1523 2514
295 1529 2632
262 1536 2739
237 1543 2831
214 1549 2909
195 1557 2984
176 1565 3059
156 1573 3133
140 1583 3206
127 1593 3266
119 1604 3316
115 1616 3359
113 1629 3397
112 1642 3435
111 1658 3472
832 1596 550
821 1582 615
809 1571 684
793 1567 760
776 1567 847
758 1569 937
738 1572 1035
712 1579 1155
684 1588 1284
653 1598 1425
619 1608 1566
584 1618 1708
544 1628 1857
500 1637 2010
455 1646 2165
413 1653 2300
371 1660 2428
331 1666 2549
288 1672 2667
248 1678 2776
215 1684 2870
188 1690 2948
162 1696 3023
139 1704 3098
115 1711 3172
93 1719 3245
78 1728 3307
68 1737 3357
61 1747 3401
59 1758 3438
58 1769 3475
57 1782 3512
883 1731 556
868 1718 633
855 1708 704
839 1703 779
820 1704 870
801 1705 962
780 1708 1060
753 1716 1183
724 1724 1313
690 1734 1454
654 1744 1595
617 1753 1737
573 1762 1887
527 1772 2040
479 1781 2195
431 1788 2331
385 1794 2459
341 1800 2580
290 1806 2699
245 1811 2809
203 1817 2905
169 1822 2983
140 1828 3058
110 1834 3133
82 1841 3207
57 1848 3280
34 1856 3344
24 1864 3395
17 1873 3438
17 1882 3476
17 1893 3513
16 1905 3550
939 1862 562
921 1853 647
904 1845 725
887 1841 802
866 1842 893
845 1844 987
823 1846 1085
792 1853 1211
761 1862 1343
725 1871 1484
687 1881 1625
648 1890 1767
602 1899 1916
550 1908 2070
500 1917 2225
448 1924 2361
395 1930 2490
347 1935 2611
288 1941 2731
234 1946 2842
186 1951 2939
146 1956 3018
111 1961 3093
77 1967 3167
52 1973 3242
29 1979 3315
15 1986 3380
6 1993 3431
0 2001 3475
0 2010 3514
0 2020 3551
0 2030 3587
999 1990 571
978 1984 660
958 1979 746
937 1978 826
915 1980 918
891 1983 1013
867 1985 1109
834 1992 1237
799 2001 1373
760 2010 1514
721 2019 1655
679 2027 1796
630 2036 1946
577 2045 2100
520 2054 2256
465 2060 2391
409 2066 2520
354 2071 2642
290 2077 2762
228 2082 2874
169 2086 2973
124 2091 3052
83 2095 3127
44 2100 3201
17 2105 3276
0 2111 3349
0 2118 3416
0 2124 3468
0 2131 3511
0 2139 3550
0 2148 3588
0 2157 3624
1067 2112 589
1045 2106 680
1024 2103 768
1004 2102 853
982 2104 943
958 2108 1038
933 2111 1139
899 2120 1267
863 2129 1403
824 2139 1545
782 2149 1684
740 2158 1826
688 2168 1976
633 2177 2130
574 2186 2286
517 2193 2421
460 2199 2550
402 2204 2672
336 2210 2794
273 2215 2906
213 2220 3006
162 2223 3085
118 2227 3160
75 2232 3234
33 2237 3309
8 2242 3383
0 2247 3452
0 2253 3503
0 2259 3546
0 2264 3586
0 2272 3623
0 2280 3659
1133 2234 608
1112 2229 698
1090 2226 791
1070 2226 879
1048 2229 969
1024 2232 1066
998 2237 1168
965 2245 1297
929 2255 1434
889 2266 1576
847 2275 1714
804 2285 1855
752 2295 2006
696 2304 2160
636 2314 2316
580 2320 2451
523 2326 2579
464 2332 2701
401 2337 2823
339 2342 2936
279 2347 3036
231 2350 3116
182 2353 3191
137 2357 3266
89 2362 3340
47 2366 3414
26 2371 3484
14 2376 3536
12 2380 3579
7 2386 3620
6 2392 3657
6 2399 3693
1199 2356 628
1177 2351 718
1156 2349 810
1135 2351 906
1113 2353 995
1090 2356 1091
1063 2361 1200
1030 2370 1329
994 2380 1466
954 2390 1607
913 2399 1745
870 2408 1884
819 2418 2035
763 2427 2190
705 2437 2346
650 2443 2479
595 2448 2607
539 2453 2729
478 2459 2851
419 2463 2965
365 2467 3065
320 2470 3145
275 2473 3220
228 2476 3295
177 2480 3370
128 2484 3444
83 2489 3514
57 2493 3567
40 2497 3610
27 2501 3651
21 2506 3689
19 2512 3724
1264 2471 652
1242 2473 749
1220 2473 840
1199 2476 934
1178 2478 1021
1154 2481 1120
1127 2487 1233
1094 2496 1362
1058 2505 1498
1018 2515 1639
978 2523 1775
936 2532 1914
884 2542 2066
829 2551 2221
772 2560 2377
719 2565 2507
665 2571 2635
610 2576 2757
552 2580 2879
495 2585 2993
443 2588 3094
401 2591 3173
359 2593 3249
315 2596 3323
269 2599 3398
219 2603 3472
171 2607 3544
139 2610 3597
119 2614 3640
100 2617 3681
91 2622 3719
87 2627 3754
1342 2581 675
1318 2584 777
1296 2587 870
1274 2591 963
1252 2594 1049
1227 2599 1149
1199 2606 1266
1164 2615 1396
1128 2625 1532
1088 2635 1672
1047 2644 1808
1004 2653 1945
952 2662 2097
896 2672 2252
839 2681 2407
787 2687 2537
734 2693 2663
680 2698 2785
622 2703 2907
569 2707 3021
518 2710 3121
478 2712 3201
438 2714 3277
397 2717 3351
354 2719 3426
309 2723 3501
260 2726 3573
228 2729 3626
203 2731 3669
183 2735 3711
170 2738 3749
164 2743 3784
1440 2682 698
1414 2686 806
1390 2690 904
1367 2694 992
1343 2698 1078
1316 2704 1178
1284 2714 1302
1248 2725 1432
1210 2736 1566
1168 2747 1705
1125 2757 1840
1080 2767 1976
1024 2778 2128
967 2789 2283
908 2799 2438
856 2806 2565
803 2813 2691
750 2819 2813
692 2825 2935
638 2829 3049
591 2832 3149
551 2834 3229
513 2835 3304
474 2837 3379
433 2840 3454
390 2842 3528
347 2845 3601
316 2848 3655
293 2850 3698
271 2852 3740
257 2855 3778
249 2859 3813
1538 2786 736
1514 2789 839
1490 2793 936
1468 2797 1023
1444 2802 1117
1418 2808 1216
1387 2818 1339
1352 2829 1468
1315 2840 1601
1275 2851 1738
1234 2861 1873
1189 2871 2009
1138 2881 2160
1083 2892 2314
1025 2903 2469
976 2909 2593
925 2915 2717
873 2921 2839
820 2926 2961
768 2931 3074
723 2935 3174
687 2937 3253
650 2938 3329
615 2940 3404
580 2943 3478
541 2946 3553
505 2949 3626
479 2951 3680
458 2952 3723
442 2955 3765
430 2957 3804
423 2961 3840
1636 2889 777
1613 2892 877
1591 2896 970
1570 2899 1054
1546 2906 1152
1521 2913 1256
1491 2923 1378
1458 2933 1506
1423 2943 1637
1385 2954 1772
1346 2963 1906
1304 2973 2042
1254 2983 2193
1203 2994 2346
1149 3004 2500
1102 3009 2622
1055 3015 2744
1005 3020 2865
955 3025 2987
908 3030 3099
865 3033 3198
831 3035 3277
799 3037 3353
766 3040 3428
734 3042 3503
702 3045 3577
670 3048 3651
648 3050 3705
632 3051 3748
618 3053 3790
609 3055 3829
605 3058 3865
1734 2992 819
1713 2995 914
1692 2998 1005
1672 3001 1086
1648 3009 1191
1623 3017 1299
1595 3026 1418
1563 3036 1545
1530 3046 1675
1495 3056 1806
1456 3065 1940
1416 3074 2076
1370 3085 2227
1321 3095 2379
1270 3104 2531
1227 3109 2650
1182 3114 2771
1136 3119 2892
1089 3124 3014
1046 3129 3125
1008 3132 3222
977 3134 3302
946 3135 3377
918 3137 3452
888 3139 3527
859 3142 3601
832 3144 3675
811 3146 3729
796 3147 3772
784 3148 3814
775 3150 3853
770 3152 3890
1834 3091 860
1813 3096 951
1792 3101 1046
1773 3105 1131
1751 3112 1233
1726 3120 1343
1699 3129 1461
1669 3139 1586
1637 3148 1713
1603 3157 1841
1566 3166 1976
1527 3176 2112
1482 3186 2262
1437 3195 2409
1389 3204 2560
1348 3209 2678
1305 3214 2798
1261 3219 2919
1218 3223 3040
1177 3227 3151
1142 3230 3247
1113 3231 3325
1084 3233 3401
1057 3234 3476
1031 3236 3550
1003 3238 3624
978 3241 3698
959 3242 3752
945 3242 3795
933 3243 3837
924 3245 3877
918 3247 3913
1934 3185 903
1914 3191 993
1894 3198 1085
1874 3204 1180
1853 3212 1281
1830 3220 1388
1803 3229 1505
1774 3239 1628
1744 3248 1753
1712 3257 1878
1676 3266 2011
1638 3276 2149
1594 3285 2298
1551 3295 2443
1507 3303 2588
1466 3308 2707
1426 3313 2826
1384 3317 2947
1343 3322 3068
1305 3326 3177
1272 3328 3271
1244 3329 3349
1217 3330 3424
1191 3331 3499
1166 3333 3574
1141 3335 3648
1117 3337 3721
1099 3337 3775
1086 3338 3818
1074 3338 3860
1065 3339 3900
1059 3341 3937
2037 3264 948
2018 3271 1041
1999 3279 1135
1979 3287 1232
1959 3296 1331
1936 3305 1437
1911 3316 1550
1883 3327 1672
1853 3337 1795
1823 3347 1914
1787 3358 2048
1749 3369 2187
1707 3381 2334
1665 3391 2477
1623 3400 2617
1583 3407 2735
1544 3411 2854
1504 3416 2974
1465 3420 3095
1428 3423 3204
1397 3425 3294
1371 3426 3373
1345 3427 3448
1320 3428 3522
1296 3429 3596
1272 3431 3671
1249 3432 3744
1231 3433 3798
1218 3433 3841
1206 3433 3883
1197 3434 3922
1190 3435 3960
2134 3342 996
2116 3350 1096
2098 3358 1189
2079 3367 1287
2061 3376 1383
2039 3386 1486
2015 3396 1597
1990 3407 1714
1961 3418 1835
1933 3428 1953
1899 3439 2086
1862 3451 2225
1822 3463 2372
1784 3473 2508
1743 3482 2645
1705 3489 2763
1667 3495 2882
1628 3500 3001
1590 3506 3121
1555 3509 3228
1526 3511 3317
1500 3513 3395
1475 3514 3470
1450 3515 3544
1427 3517 3618
1403 3519 3692
1381 3521 3765
1363 3521 3819
1350 3521 3862
1338 3522 3904
1328 3522 3943
1320 3523 3981
2228 3418 1046
2211 3428 1150
2194 3437 1249
2177 3446 1343
