lut/Kodak 5205 Fuji 3510 (by Adobe).3DL
#Created by: Adobe Photoshop Export Color Lookup Plugin
#Description: -14b15759bd8c6a7d.jpg
0 33 66 99 132 165 198 231 264 297 330 363 396 429 462 495 528 561 594 627 660 693 726 759 792 825 858 891 924 957 990 1023
45 30 40
61 37 127
81 42 220
104 44 322
156 45 446
224 43 580
316 37 727
435 25 869
576 12 1013
761 3 1169
991 0 1324
1235 0 1472
1444 0 1582
1645 0 1690
1842 0 1797
2052 0 1905
2234 0 2010
2386 0 2111
2492 0 2175
2594 0 2232
2695 0 2281
2794 0 2329
2890 0 2376
2975 0 2421
3032 0 2464
3079 0 2505
3125 0 2545
3171 0 2583
3215 0 2619
3258 0 2637
3299 0 2654
3340 0 2671
52 142 57
43 139 167
53 143 254
65 146 349
73 151 454
106 153 580
142 152 715
168 146 839
249 135 972
325 127 1107
423 111 1249
590 101 1393
688 79 1509
826 60 1610
976 45 1712
1097 7 1810
1278 3 1916
1430 0 2019
1624 0 2123
1768 0 2187
1926 0 2244
2091 0 2287
2238 0 2331
2418 0 2370
2606 0 2412
2749 0 2459
3009 0 2523
3132 0 2576
3218 0 2620
3260 0 2638
3302 0 2655
3342 0 2671
54 236 69
41 236 186
35 236 287
38 239 375
41 246 481
44 252 595
49 255 725
55 254 846
66 250 966
100 243 1094
143 234 1229
204 217 1364
278 196 1484
360 174 1589
451 143 1683
555 110 1781
666 76 1880
818 69 1984
979 49 2087
1154 29 2181
1347 27 2244
1522 1 2296
1694 0 2341
1906 0 2380
2085 0 2420
2289 0 2460
2557 0 2523
2767 0 2576
2931 0 2634
3018 0 2659
3079 0 2678
3119 0 2694
49 310 75
33 313 201
23 317 309
20 321 399
21 330 505
21 338 621
19 346 752
22 349 875
28 350 997
41 349 1123
73 346 1258
115 340 1395
178 330 1521
255 316 1628
339 300 1725
427 279 1822
525 252 1921
628 223 2020
752 180 2123
891 138 2215
1034 89 2292
1203 38 2351
1370 3 2406
1532 0 2457
1674 0 2500
1812 0 2541
1946 0 2580
2108 0 2622
2260 0 2662
2431 0 2700
2541 0 2726
2621 0 2745
34 394 91
19 395 219
10 399 331
8 404 422
8 414 530
8 423 647
7 432 779
7 438 903
9 440 1026
13 440 1152
17 442 1287
46 440 1424
89 435 1553
161 427 1662
243 415 1759
337 404 1857
429 386 1955
527 362 2054
633 340 2155
755 304 2249
888 267 2328
1026 237 2389
1187 188 2447
1345 165 2502
1510 121 2556
1640 98 2600
1759 49 2643
1883 13 2684
2021 0 2723
2152 0 2762
2301 0 2800
2402 0 2825
18 483 110
8 486 238
0 490 353
0 495 447
0 505 556
0 515 675
0 525 807
0 531 933
0 536 1057
0 538 1183
0 541 1318
0 543 1457
29 541 1587
63 537 1698
141 531 1795
232 523 1894
335 513 1992
430 498 2091
536 481 2192
647 464 2287
769 440 2368
900 419 2430
1038 395 2488
1191 359 2545
1349 320 2600
1514 269 2655
1635 204 2701
1747 149 2744
1863 95 2786
1982 83 2826
2101 58 2865
2232 58 2902
3 580 133
3 585 261
0 591 375
0 598 473
0 609 584
0 620 704
0 631 840
0 639 966
0 645 1091
0 649 1219
0 653 1355
0 658 1494
0 660 1628
7 658 1739
27 655 1837
110 651 1936
213 644 2035
326 636 2134
434 625 2235
546 612 2330
665 599 2415
793 585 2477
926 568 2535
1065 553 2591
1216 529 2648
1373 499 2704
1537 471 2758
1653 427 2803
1762 383 2846
1871 332 2888
1983 280 2927
2098 224 2966
0 679 158
0 684 283
0 693 399
0 702 499
0 715 613
0 728 735
0 742 872
0 753 1000
0 760 1126
0 767 1255
0 776 1393
0 783 1533
0 790 1670
0 793 1784
0 792 1882
21 790 1982
75 787 2082
165 781 2182
304 775 2284
425 766 2380
552 757 2465
688 749 2528
820 738 2586
959 726 2643
1103 714 2700
1254 696 2756
1413 677 2811
1573 655 2865
1686 620 2910
1792 585 2953
1899 545 2994
2008 484 3033
0 784 183
0 789 307
0 797 423
0 809 525
0 823 641
0 839 766
0 855 905
0 867 1033
0 878 1160
0 887 1291
0 898 1431
0 909 1573
0 919 1711
0 926 1827
0 929 1927
0 930 2028
6 930 2129
32 927 2229
136 925 2332
275 921 2430
415 915 2517
567 910 2580
712 905 2639
851 897 2696
998 890 2754
1145 882 2811
1300 869 2866
1457 855 2921
1614 837 2974
1724 812 3019
1829 785 3061
1934 753 3102
0 899 208
0 907 331
0 916 448
0 928 554
0 942 671
0 958 797
0 975 940
0 988 1067
0 999 1194
0 1010 1327
0 1022 1467
0 1033 1610
0 1045 1750
0 1053 1866
0 1059 1967
0 1064 2069
0 1068 2171
6 1070 2274
8 1073 2379
101 1073 2478
226 1073 2567
411 1072 2632
578 1071 2691
737 1071 2751
887 1068 2809
1039 1065 2867
1195 1062 2925
1354 1052 2980
1513 1039 3034
1660 1025 3085
1770 1003 3129
1874 978 3171
0 1011 234
0 1024 355
0 1036 474
0 1049 582
0 1067 702
0 1085 831
0 1105 975
0 1119 1102
0 1131 1230
0 1143 1364
0 1156 1506
0 1169 1649
0 1182 1789
0 1192 1907
0 1199 2009
0 1206 2112
0 1213 2215
0 1218 2318
0 1223 2424
0 1226 2524
86 1228 2615
188 1229 2680
397 1231 2740
592 1232 2799
768 1234 2858
925 1234 2917
1087 1233 2975
1249 1233 3033
1412 1225 3088
1571 1218 3142
1709 1207 3192
1817 1187 3236
0 1121 259
0 1135 380
0 1152 498
0 1169 611
0 1189 732
0 1210 863
0 1234 1010
0 1250 1138
0 1265 1265
0 1277 1400
0 1292 1543
0 1308 1688
0 1322 1829
0 1334 1947
0 1343 2050
0 1352 2153
0 1360 2258
0 1367 2362
0 1374 2469
0 1381 2570
0 1384 2662
54 1387 2727
149 1390 2787
397 1392 2846
616 1395 2905
802 1398 2964
970 1399 3023
1140 1401 3081
1307 1402 3138
1476 1401 3195
1630 1397 3248
1760 1389 3298
0 1227 284
0 1243 405
0 1260 525
0 1279 642
0 1299 764
0 1321 895
0 1345 1042
0 1363 1169
0 1379 1295
0 1397 1432
0 1415 1577
0 1434 1723
0 1454 1864
0 1469 1983
0 1481 2087
0 1495 2193
0 1507 2298
0 1518 2404
0 1531 2512
0 1541 2615
0 1550 2709
0 1554 2774
38 1557 2834
94 1562 2894
391 1566 2953
632 1570 3012
838 1574 3071
1017 1577 3129
1193 1580 3187
1370 1583 3244
1543 1583 3300
1700 1581 3354
0 1334 307
0 1351 433
0 1369 554
0 1389 673
0 1410 796
0 1432 926
0 1456 1072
0 1476 1200
0 1493 1326
0 1511 1464
0 1533 1610
0 1555 1757
0 1576 1897
0 1594 2016
0 1609 2121
0 1624 2227
0 1639 2333
0 1653 2440
0 1668 2549
0 1681 2653
0 1693 2748
0 1701 2814
0 1707 2874
16 1714 2935
79 1724 2995
400 1730 3054
666 1738 3114
883 1747 3173
1068 1751 3232
1254 1759 3290
1437 1766 3348
1613 1768 3404
0 1439 331
0 1458 459
0 1478 584
0 1499 706
0 1521 830
0 1543 960
0 1568 1103
0 1587 1230
0 1606 1357
0 1625 1495
0 1648 1641
0 1672 1790
0 1695 1929
0 1713 2047
0 1730 2152
0 1746 2258
0 1762 2365
0 1778 2472
0 1794 2582
0 1809 2686
0 1822 2781
0 1833 2848
0 1843 2909
0 1854 2970
11 1867 3031
81 1879 3092
433 1891 3152
709 1903 3213
933 1916 3273
1128 1927 3332
1320 1939 3391
1507 1950 3450
0 1533 362
0 1557 494
0 1579 619
0 1603 741
0 1628 866
0 1652 994
0 1677 1132
0 1698 1261
0 1717 1388
0 1738 1526
0 1763 1674
0 1788 1822
0 1812 1958
0 1832 2077
0 1849 2182
0 1867 2289
0 1884 2396
0 1901 2503
0 1919 2613
0 1935 2717
0 1949 2813
0 1961 2880
0 1972 2941
0 1985 3002
0 1998 3062
20 2011 3123
126 2025 3184
488 2039 3244
770 2052 3304
1000 2066 3364
1200 2079 3423
1395 2091 3482
0 1621 397
0 1646 529
0 1671 655
0 1697 777
0 1723 903
0 1749 1028
0 1774 1163
0 1797 1290
0 1818 1419
0 1841 1557
0 1869 1705
0 1897 1853
0 1922 1988
0 1944 2106
0 1963 2211
0 1983 2318
0 2004 2425
0 2022 2533
0 2041 2643
0 2058 2747
0 2074 2843
0 2087 2910
0 2099 2971
0 2112 3032
0 2127 3092
0 2141 3153
43 2156 3213
200 2172 3274
564 2186 3334
841 2201 3394
1074 2216 3453
1277 2230 3512
0 1704 434
0 1730 568
0 1756 695
0 1781 815
0 1807 941
0 1833 1067
0 1859 1193
0 1883 1319
0 1907 1448
0 1934 1587
0 1964 1735
0 1996 1884
0 2023 2016
0 2048 2132
0 2070 2238
0 2094 2345
0 2117 2453
0 2140 2562
0 2160 2672
0 2179 2776
0 2197 2872
0 2210 2939
0 2223 3000
0 2238 3060
0 2253 3121
0 2268 3181
0 2284 3242
108 2301 3302
298 2317 3363
641 2333 3423
919 2350 3482
1153 2365 3541
0 1789 479
0 1815 612
0 1841 738
0 1866 857
0 1892 983
0 1917 1105
0 1941 1224
0 1966 1350
0 1991 1479
0 2020 1618
0 2051 1766
0 2083 1913
0 2110 2040
0 2135 2156
0 2158 2262
0 2182 2368
0 2206 2476
0 2230 2585
0 2255 2695
0 2276 2799
0 2296 2895
0 2313 2962
0 2329 3023
0 2346 3084
0 2365 3145
0 2383 3206
0 2403 3267
0 2424 3328
125 2442 3389
414 2463 3449
741 2480 3509
1009 2496 3568
0 1873 526
0 1900 658
0 1926 784
0 1951 901
0 1977 1025
0 2002 1145
0 2024 1259
0 2049 1382
0 2075 1511
0 2106 1650
0 2138 1797
0 2170 1943
0 2197 2067
0 2222 2180
0 2245 2285
0 2270 2391
0 2294 2499
0 2318 2607
0 2343 2718
0 2367 2821
0 2389 2916
0 2408 2983
0 2426 3045
0 2445 3106
0 2466 3167
0 2487 3228
0 2509 3289
0 2532 3350
0 2554 3412
195 2576 3472
540 2597 3532
856 2615 3591
0 1959 577
0 1985 706
0 2011 831
0 2036 948
0 2061 1069
0 2086 1186
0 2107 1292
0 2132 1415
0 2160 1544
0 2192 1683
0 2225 1829
0 2257 1975
0 2283 2093
0 2308 2204
0 2332 2309
0 2357 2415
0 2382 2522
0 2406 2630
0 2432 2740
0 2456 2844
0 2479 2936
0 2498 3003
0 2516 3065
0 2536 3125
0 2557 3186
0 2578 3247
0 2601 3308
0 2624 3369
0 2647 3430
0 2670 3490
278 2693 3551
690 2716 3610
0 2045 633
0 2071 757
0 2096 881
0 2121 998
0 2144 1106
0 2168 1222
0 2190 1329
0 2218 1451
0 2246 1579
0 2278 1717
0 2311 1863
0 2344 2006
0 2369 2119
0 2395 2229
0 2419 2333
0 2444 2438
0 2469 2545
0 2494 2653
0 2520 2763
0 2545 2865
0 2567 2957
0 2587 3023
0 2606 3084
0 2625 3144
0 2647 3204
0 2669 3265
0 2692 3326
0 2715 3387
0 2738 3447
0 2762 3508
103 2786 3568
460 2810 3627
0 2123 690
0 2149 813
0 2176 933
0 2201 1050
0 2223 1152
0 2248 1259
0 2270 1366
0 2299 1487
0 2331 1615
0 2364 1752
0 2398 1897
0 2430 2039
0 2456 2148
0 2481 2254
0 2505 2357
0 2531 2462
0 2556 2568
0 2582 2676
0 2608 2786
0 2633 2887
0 2656 2977
0 2676 3042
0 2695 3103
0 2715 3163
0 2736 3223
0 2759 3284
0 2782 3344
0 2806 3405
0 2830 3465
0 2854 3525
47 2879 3585
235 2903 3644
0 2181 751
0 2211 871
0 2239 990
0 2267 1106
0 2289 1197
0 2314 1297
0 2344 1405
0 2375 1525
0 2409 1652
0 2445 1788
0 2482 1933
0 2516 2073
0 2542 2175
0 2567 2279
0 2592 2382
0 2617 2486
0 2643 2592
0 2669 2699
0 2696 2809
0 2721 2909
0 2744 2997
0 2764 3062
0 2783 3122
0 2804 3182
0 2826 3242
0 2848 3302
0 2872 3362
0 2896 3422
0 2920 3482
0 2945 3542
0 2970 3602
47 2995 3661
0 2237 814
0 2266 932
0 2294 1042
0 2321 1152
0 2345 1242
0 2370 1336
0 2400 1444
0 2432 1562
0 2467 1688
0 2503 1824
0 2539 1961
0 2575 2100
0 2602 2200
0 2631 2301
0 2657 2404
0 2686 2508
0 2715 2614
0 2742 2721
0 2773 2830
0 2801 2930
0 2826 3016
0 2851 3081
0 2871 3141
0 2892 3200
0 2914 3260
0 2937 3320
0 2961 3380
0 2986 3440
0 3010 3500
0 3036 3559
0 3061 3619
0 3086 3678
0 2291 878
0 2321 996
0 2347 1100
0 2373 1198
0 2397 1285
0 2423 1378
0 2453 1484
0 2485 1602
0 2518 1725
0 2554 1860
0 2589 1993
0 2624 2124
0 2653 2223
0 2682 2323
0 2712 2425
0 2743 2529
0 2774 2634
0 2806 2741
0 2839 2850
0 2870 2949
0 2898 3033
0 2924 3098
0 2950 3158
0 2972 3218
0 2996 3277
0 3021 3337
0 3045 3397
0 3071 3456
0 3097 3516
0 3123 3576
0 3150 3635
0 3176 3694
0 2346 946
0 2378 1061
0 2404 1160
0 2427 1242
0 2451 1329
0 2477 1422
0 2506 1526
0 2537 1642
0 2570 1764
0 2605 1896
0 2639 2024
0 2672 2149
0 2701 2246
0 2730 2345
0 2760 2446
0 2790 2549
0 2822 2653
0 2853 2759
0 2886 2868
0 2916 2965
0 2944 3046
0 2970 3110
0 2996 3170
0 3023 3229
0 3050 3289
0 3077 3349
0 3108 3410
0 3137 3470
0 3166 3530
0 3199 3590
0 3229 3650
0 3260 3709
0 2405 1017
0 2432 1116
0 2459 1213
0 2481 1291
0 2504 1375
0 2530 1467
0 2558 1569
0 2589 1683
0 2621 1805
0 2656 1935
0 2688 2053
0 2720 2174
0 2749 2269
0 2778 2367
0 2807 2467
0 2838 2569
0 2869 2673
0 2900 2778
0 2932 2886
0 2963 2981
0 2990 3059
0 3016 3122
0 3042 3182
0 3068 3241
0 3097 3300
0 3126 3360
0 3157 3420
0 3188 3480
0 3220 3540
0 3252 3600
0 3285 3660
0 3318 3720
0 2465 1088
0 2490 1177
0 2513 1262
0 2535 1339
