lut/Kodak 5218 Kodak 2383 (by Adobe).3DL
#Created by: Adobe Photoshop Export Color Lookup Plugin
#Description: -14b15759bd8c6a7d.jpg
0 33 66 99 132 165 198 231 264 297 330 363 396 429 462 495 528 561 594 627 660 693 726 759 792 825 858 891 924 957 990 1023
63 61 55
61 63 77
56 67 129
49 72 218
40 75 339
32 76 466
24 74 598
19 69 723
16 61 848
13 49 979
12 36 1088
12 22 1188
12 6 1292
14 0 1392
16 0 1489
15 0 1569
14 0 1649
13 0 1727
11 0 1805
8 0 1882
4 0 1957
2 0 2021
0 0 2084
0 0 2145
0 2 2210
0 12 2277
0 48 2343
0 90 2409
0 135 2473
0 192 2528
0 252 2583
0 315 2638
69 79 59
67 80 78
62 84 118
55 90 192
47 96 292
38 100 414
29 103 541
20 104 669
13 101 796
6 97 930
5 91 1060
4 82 1171
4 77 1281
4 66 1394
6 63 1500
6 60 1593
5 60 1678
5 60 1761
5 67 1849
3 73 1932
2 80 2016
1 102 2081
0 116 2146
0 138 2212
0 165 2278
0 184 2345
0 224 2410
0 265 2473
0 308 2536
0 355 2591
0 404 2644
0 458 2697
75 115 64
73 113 84
67 117 123
61 124 185
51 133 282
40 142 391
30 148 514
18 156 642
11 159 771
4 160 906
1 162 1042
0 160 1171
0 160 1284
0 161 1402
0 154 1520
0 155 1621
0 159 1714
0 158 1801
0 169 1890
0 181 1981
0 194 2071
0 217 2142
0 243 2207
0 274 2275
0 307 2341
0 342 2408
0 380 2473
0 418 2534
0 460 2595
0 502 2649
0 543 2702
0 586 2753
83 174 73
80 168 93
74 169 133
65 178 197
53 190 292
40 202 399
25 216 521
11 227 650
1 238 780
1 247 916
0 254 1055
0 260 1192
0 267 1309
0 272 1429
0 277 1550
0 285 1661
0 294 1760
0 305 1852
0 319 1941
0 334 2031
0 351 2124
0 374 2200
0 400 2270
0 428 2335
0 458 2401
0 489 2466
0 519 2529
0 552 2590
0 586 2649
0 622 2702
0 660 2754
0 698 2804
85 269 81
83 262 105
75 264 149
64 274 217
48 288 312
32 302 420
13 317 543
9 333 673
0 346 806
0 359 943
0 371 1088
0 379 1227
0 390 1345
0 399 1465
0 407 1588
0 419 1708
0 430 1811
0 443 1905
0 458 1996
0 473 2086
0 490 2179
0 510 2257
0 534 2327
0 559 2391
0 585 2456
0 614 2520
0 642 2584
0 672 2644
0 704 2702
0 737 2757
0 772 2807
0 809 2857
89 375 88
86 369 116
77 370 166
63 381 239
44 396 336
28 411 444
6 429 568
1 446 700
0 462 834
0 477 973
0 492 1121
0 505 1266
0 517 1385
0 529 1507
0 540 1629
0 552 1753
0 566 1862
0 581 1958
0 596 2050
0 612 2142
0 628 2234
0 647 2314
0 667 2386
0 690 2449
0 715 2512
0 740 2576
0 767 2640
0 795 2700
0 825 2758
0 857 2813
0 890 2863
0 924 2911
95 492 95
93 488 128
83 490 182
64 502 264
40 516 362
20 532 471
5 550 596
0 568 730
0 586 866
0 604 1007
0 620 1157
0 636 1306
0 650 1429
0 663 1552
0 676 1677
0 690 1805
0 703 1917
0 718 2013
0 733 2105
0 749 2197
0 766 2289
0 784 2372
0 804 2446
0 826 2509
0 850 2573
0 874 2636
0 900 2700
0 928 2760
0 956 2818
0 986 2873
0 1018 2923
0 1050 2969
105 618 98
104 616 141
92 620 202
71 632 289
41 647 391
19 664 502
3 682 629
0 702 765
0 720 903
0 739 1045
0 757 1195
0 774 1346
0 789 1474
0 804 1599
0 818 1725
0 833 1858
0 848 1971
0 862 2068
0 878 2162
0 895 2255
0 912 2348
0 931 2435
0 951 2511
0 972 2573
0 993 2636
0 1017 2699
0 1040 2761
0 1065 2821
0 1092 2879
0 1118 2933
0 1146 2981
0 1177 3026
121 749 100
118 748 150
105 753 219
80 766 313
47 783 419
20 800 534
3 819 663
0 839 800
0 859 941
0 878 1084
0 897 1236
0 915 1387
0 931 1517
0 947 1645
0 963 1772
0 978 1908
0 994 2026
0 1009 2124
0 1025 2219
0 1042 2313
0 1060 2407
0 1079 2496
0 1098 2575
0 1119 2638
0 1140 2700
0 1161 2761
0 1183 2823
0 1206 2882
0 1229 2940
0 1254 2993
0 1280 3041
0 1306 3083
154 884 97
144 888 162
126 894 238
95 908 339
56 925 448
25 943 565
3 963 697
0 983 836
0 1003 978
0 1023 1124
0 1043 1277
0 1062 1430
0 1080 1564
0 1096 1693
0 1112 1822
0 1129 1959
0 1145 2078
0 1160 2180
0 1176 2276
0 1192 2371
0 1208 2465
0 1226 2556
0 1244 2636
0 1262 2698
0 1282 2759
0 1303 2821
0 1323 2881
0 1346 2941
0 1368 2999
0 1392 3051
0 1417 3099
0 1442 3141
203 1025 92
191 1031 172
168 1039 258
134 1053 363
88 1071 478
40 1089 598
5 1109 732
0 1130 873
0 1151 1016
0 1171 1164
0 1192 1320
0 1212 1474
0 1230 1609
0 1247 1741
0 1263 1870
0 1280 2007
0 1297 2130
0 1312 2234
0 1328 2331
0 1344 2427
0 1360 2521
0 1377 2614
0 1394 2696
0 1412 2758
0 1431 2818
0 1450 2879
0 1471 2939
0 1492 2999
0 1514 3057
0 1537 3109
0 1560 3157
0 1585 3199
263 1169 85
249 1177 175
225 1188 274
187 1202 386
138 1220 505
83 1238 630
23 1259 767
1 1280 910
0 1301 1055
0 1322 1204
0 1343 1361
0 1364 1518
0 1382 1654
0 1399 1786
0 1416 1917
0 1434 2055
0 1450 2179
0 1466 2286
0 1482 2385
0 1498 2481
0 1514 2575
0 1531 2670
0 1548 2755
0 1566 2816
0 1584 2877
0 1603 2937
0 1622 2997
0 1643 3057
0 1664 3115
0 1686 3167
0 1708 3214
0 1731 3257
345 1325 67
323 1335 184
299 1346 290
262 1361 409
208 1379 535
149 1398 663
79 1418 803
21 1439 947
0 1461 1093
0 1482 1245
0 1503 1404
0 1524 1561
0 1542 1698
0 1560 1832
0 1577 1963
0 1595 2103
0 1612 2227
0 1628 2337
0 1644 2437
0 1660 2534
0 1676 2629
0 1693 2724
0 1710 2809
0 1727 2873
0 1744 2934
0 1763 2994
0 1782 3054
0 1802 3113
0 1822 3171
0 1840 3223
0 1859 3269
0 1879 3312
434 1469 55
411 1483 188
385 1497 311
349 1512 434
302 1531 563
243 1550 696
172 1571 838
96 1592 983
31 1614 1131
0 1635 1284
0 1657 1444
0 1678 1603
0 1696 1740
0 1714 1875
0 1732 2007
0 1749 2147
0 1766 2273
0 1782 2384
0 1797 2485
0 1812 2582
0 1828 2678
0 1843 2772
0 1859 2859
0 1875 2924
0 1890 2984
0 1907 3044
0 1924 3103
0 1940 3161
0 1960 3219
0 1977 3271
0 1994 3318
0 2011 3360
529 1607 48
505 1623 193
477 1640 331
445 1657 461
401 1676 592
350 1696 728
286 1718 872
207 1740 1019
123 1762 1167
35 1784 1321
4 1806 1483
0 1828 1644
0 1846 1780
0 1864 1915
0 1881 2048
0 1898 2188
0 1915 2315
0 1930 2428
0 1944 2529
0 1958 2628
0 1973 2723
0 1987 2818
0 2001 2904
0 2014 2970
0 2028 3031
0 2041 3090
0 2055 3148
0 2070 3205
0 2085 3262
0 2101 3314
0 2116 3361
0 2132 3403
629 1742 50
607 1759 214
581 1776 356
551 1793 492
515 1812 626
470 1832 763
417 1854 908
360 1875 1054
286 1897 1203
210 1919 1358
112 1941 1521
65 1962 1682
0 1980 1816
0 1997 1951
0 2014 2084
0 2031 2225
0 2047 2352
0 2062 2466
0 2076 2568
0 2090 2666
0 2103 2761
0 2117 2856
0 2131 2943
0 2144 3011
0 2157 3072
0 2170 3131
0 2183 3188
0 2198 3246
0 2212 3302
0 2227 3355
0 2242 3403
0 2258 3446
728 1879 55
706 1896 227
681 1913 384
653 1930 524
619 1949 659
582 1968 797
535 1990 943
486 2010 1090
430 2032 1238
360 2053 1394
282 2075 1558
186 2097 1719
119 2114 1852
53 2131 1986
49 2148 2120
14 2165 2261
0 2181 2388
0 2195 2503
0 2209 2605
0 2222 2704
0 2235 2799
0 2249 2894
0 2262 2981
0 2275 3051
0 2287 3112
0 2300 3170
0 2313 3228
5 2327 3286
10 2341 3342
26 2355 3396
54 2369 3444
54 2384 3487
826 2017 63
804 2033 243
780 2050 409
752 2068 558
720 2086 694
684 2105 833
643 2126 979
598 2146 1125
549 2167 1274
492 2188 1431
424 2210 1595
351 2231 1757
293 2248 1887
225 2264 2020
155 2281 2154
76 2298 2296
27 2314 2424
0 2329 2538
0 2342 2640
0 2355 2740
0 2368 2835
0 2382 2931
0 2395 3018
0 2407 3089
0 2419 3151
0 2431 3209
0 2444 3267
7 2457 3324
20 2471 3381
62 2485 3435
109 2499 3484
162 2513 3528
917 2155 83
894 2172 280
871 2189 446
844 2207 595
816 2224 732
783 2243 871
746 2263 1016
707 2283 1162
662 2304 1312
612 2325 1469
558 2346 1630
495 2367 1791
450 2384 1922
400 2400 2054
338 2417 2189
281 2434 2331
223 2450 2458
192 2464 2572
165 2477 2675
158 2491 2775
147 2504 2871
135 2517 2966
137 2530 3055
145 2542 3126
164 2553 3188
175 2565 3247
196 2577 3304
215 2590 3362
233 2603 3418
266 2616 3473
305 2630 3523
354 2644 3567
1011 2283 112
989 2301 313
967 2319 487
942 2337 636
915 2354 772
887 2373 909
853 2392 1053
817 2413 1199
778 2433 1349
733 2454 1507
687 2475 1666
637 2496 1824
599 2513 1955
561 2529 2088
516 2546 2222
468 2563 2364
429 2579 2492
393 2593 2605
370 2606 2708
351 2619 2808
332 2632 2904
320 2645 3000
313 2657 3089
324 2669 3161
343 2680 3223
368 2691 3281
394 2703 3339
420 2714 3396
448 2727 3453
477 2739 3508
508 2752 3558
545 2765 3603
1113 2396 153
1091 2416 360
1069 2435 537
1047 2453 681
1022 2471 816
996 2490 953
968 2509 1092
935 2530 1238
900 2551 1388
861 2572 1545
821 2593 1702
780 2614 1856
749 2631 1987
716 2648 2120
682 2665 2254
646 2682 2396
615 2698 2524
592 2712 2636
577 2724 2739
563 2737 2839
554 2750 2935
546 2762 3031
544 2774 3120
552 2785 3193
568 2795 3255
587 2805 3313
606 2816 3370
628 2827 3427
651 2838 3484
674 2849 3540
701 2860 3590
730 2871 3635
1214 2511 222
1195 2530 412
1175 2549 588
1154 2566 730
1133 2584 862
1109 2602 997
1083 2621 1133
1056 2641 1278
1024 2662 1428
989 2684 1585
957 2704 1737
921 2724 1888
895 2741 2018
869 2758 2151
839 2775 2286
810 2792 2428
785 2807 2554
767 2821 2665
756 2834 2767
746 2846 2867
739 2859 2964
735 2871 3060
733 2882 3148
741 2893 3222
754 2903 3284
771 2913 3342
788 2923 3399
806 2933 3456
826 2944 3513
846 2954 3569
869 2965 3619
896 2976 3666
1317 2627 296
1299 2645 478
1281 2663 642
1262 2680 781
1243 2697 910
1222 2715 1042
1199 2733 1176
1174 2753 1320
1147 2773 1469
1115 2795 1626
1087 2814 1775
1059 2833 1920
1036 2850 2050
1014 2867 2183
990 2883 2317
964 2901 2459
945 2916 2584
932 2929 2693
923 2942 2796
917 2954 2896
912 2966 2992
908 2978 3088
906 2989 3176
914 2999 3250
924 3009 3312
937 3018 3369
951 3028 3427
966 3038 3484
982 3048 3540
999 3058 3596
1017 3068 3647
1040 3078 3694
1421 2742 371
1405 2760 541
1388 2777 700
1372 2794 834
1355 2810 959
1336 2827 1088
1316 2845 1220
1293 2864 1363
1268 2885 1512
1241 2905 1668
1216 2924 1813
1193 2943 1953
1174 2959 2083
1154 2976 2215
1133 2992 2349
1112 3009 2491
1095 3024 2615
1085 3037 2721
1079 3050 2824
1073 3062 2924
1070 3073 3020
1066 3085 3115
1063 3096 3204
1064 3105 3277
1070 3114 3338
1079 3123 3396
1086 3131 3453
1096 3140 3509
1106 3150 3565
1115 3159 3620
1129 3168 3672
1144 3178 3719
1528 2857 446
1513 2875 607
1498 2891 758
1483 2908 890
1468 2923 1009
1451 2939 1135
1433 2957 1267
1411 2975 1409
1387 2995 1556
1360 3016 1713
1338 3033 1849
1317 3050 1987
1297 3066 2115
1277 3082 2247
1258 3098 2380
1235 3115 2522
1219 3129 2644
1210 3142 2748
1201 3153 2850
1194 3165 2949
1189 3177 3045
1184 3188 3141
1181 3198 3229
1182 3207 3301
1186 3216 3362
1192 3224 3420
1199 3232 3477
1206 3241 3533
1215 3250 3589
1223 3259 3644
1234 3268 3695
1246 3276 3743
1631 2972 522
1617 2988 677
1603 3004 819
1589 3020 946
1575 3035 1063
1560 3050 1184
1543 3068 1315
1522 3086 1456
1499 3104 1601
1472 3124 1757
1451 3141 1892
1432 3157 2020
1412 3172 2148
1392 3188 2279
1372 3203 2412
1350 3219 2552
1333 3233 2674
1322 3245 2775
1312 3256 2876
1303 3267 2975
1296 3278 3070
1289 3289 3165
1285 3299 3253
1286 3308 3324
1291 3316 3385
1296 3324 3443
1303 3332 3500
1310 3341 3556
1318 3349 3612
1326 3358 3667
1336 3367 3718
1347 3375 3767
1717 3082 601
1702 3098 747
1688 3113 883
1674 3127 1002
1660 3141 1116
1645 3156 1236
1627 3173 1365
1607 3191 1504
1584 3209 1649
1560 3228 1800
1541 3244 1930
1524 3259 2054
1506 3275 2181
1487 3290 2311
1467 3305 2443
1448 3321 2579
1432 3335 2700
1422 3346 2800
1413 3357 2901
1404 3368 2999
1397 3379 3094
1391 3390 3189
1388 3400 3277
1389 3408 3347
1393 3416 3408
1399 3424 3465
1405 3432 3522
1412 3440 3578
1419 3449 3634
1427 3457 3689
1437 3466 3741
1447 3474 3790
1802 3172 687
1789 3187 821
1775 3202 949
1762 3216 1063
1748 3230 1173
1733 3245 1290
1716 3262 1418
1696 3280 1555
1676 3298 1695
1654 3317 1839
1637 3333 1968
1620 3348 2087
1603 3364 2214
1586 3379 2343
1567 3395 2475
1550 3411 2607
1536 3424 2724
1526 3436 2825
1518 3447 2925
1510 3458 3023
1504 3469 3117
1498 3480 3212
1495 3490 3299
1497 3498 3368
1501 3506 3428
1506 3513 3485
1512 3521 3542
1519 3529 3598
1526 3537 3654
1534 3545 3709
1543 3553 3761
1553 3561 3810
1887 3250 775
1875 3265 901
1862 3280 1019
1850 3294 1126
