lut/NightFromDay.3DL
#Created by: Adobe Photoshop Export Color Lookup Plugin
#Description: -14b15759bd8c6a7d.jpg
0 33 66 99 132 165 198 231 264 297 330 363 396 429 462 495 528 561 594 627 660 693 726 759 792 825 858 891 924 957 990 1023
0 0 0
0 0 66
0 0 133
0 0 208
0 0 281
0 0 348
0 1 415
0 10 490
0 14 563
0 6 629
0 3 695
0 11 761
0 22 834
0 39 917
0 41 982
0 24 1023
0 24 1085
0 41 1168
0 57 1242
0 74 1308
0 85 1369
0 94 1427
0 113 1491
0 138 1557
0 163 1636
0 188 1719
0 199 1775
0 208 1825
0 223 1896
0 240 1971
0 241 2022
0 241 2072
0 33 17
0 33 66
0 33 134
0 25 216
0 27 291
0 41 364
0 38 429
0 26 490
0 37 567
0 47 645
0 41 712
0 44 778
0 52 847
0 64 925
0 69 997
0 57 1048
0 53 1098
0 66 1168
0 92 1251
0 115 1325
0 132 1381
0 143 1436
0 152 1488
0 171 1549
0 190 1628
0 213 1711
0 224 1773
0 233 1825
0 248 1889
0 265 1962
0 266 2029
0 266 2080
0 67 34
0 67 84
0 67 135
0 59 218
0 53 299
0 69 374
0 80 446
0 64 504
0 55 567
0 72 650
0 84 728
0 84 794
0 86 863
0 94 938
0 96 1005
0 88 1063
0 88 1121
0 96 1179
0 117 1250
0 150 1333
0 174 1397
0 190 1447
0 200 1497
0 209 1546
0 223 1620
0 239 1703
0 249 1766
0 257 1824
0 273 1889
0 290 1956
0 291 2021
0 291 2088
0 117 58
0 117 117
0 117 168
0 117 234
0 110 316
0 111 391
0 123 462
0 113 520
0 105 580
0 122 650
0 136 730
0 142 802
0 139 869
0 136 938
0 144 1005
0 146 1063
0 146 1121
0 154 1179
0 163 1242
0 183 1316
0 211 1399
0 232 1463
0 237 1513
0 242 1563
0 250 1625
0 264 1703
0 274 1772
0 282 1832
0 298 1898
0 314 1964
0 315 2022
0 315 2088
0 170 81
0 170 142
0 170 201
0 170 267
0 170 331
0 170 405
0 169 479
0 161 537
0 157 597
0 174 663
0 187 733
0 196 808
0 197 876
0 189 942
0 189 1006
0 197 1064
0 205 1124
0 213 1182
0 220 1242
0 228 1308
0 245 1383
0 269 1466
0 278 1528
0 278 1577
0 283 1640
0 292 1706
0 301 1771
0 309 1837
0 324 1906
0 340 1972
0 340 2030
0 340 2088
0 244 90
0 244 172
0 244 234
0 244 300
0 244 364
0 244 405
0 244 480
0 244 553
0 238 613
0 240 680
0 254 751
0 262 832
0 261 895
0 247 942
0 249 1009
0 263 1072
0 271 1139
0 280 1207
0 279 1256
0 278 1308
0 286 1374
0 303 1449
0 316 1520
0 320 1577
0 320 1640
0 325 1706
0 340 1765
0 351 1829
0 359 1910
0 374 1980
0 367 2031
0 365 2088
0 316 104
0 316 181
0 316 263
0 316 329
0 315 394
0 314 437
0 314 477
0 314 551
0 314 628
0 314 695
0 315 763
0 324 846
0 327 918
0 311 959
0 304 1007
0 321 1073
0 333 1142
0 341 1217
0 342 1277
0 334 1319
0 336 1377
0 344 1444
0 351 1509
0 359 1575
0 363 1644
0 363 1711
0 373 1767
0 390 1825
0 399 1902
0 407 1985
0 401 2038
0 393 2088
0 374 146
0 374 195
0 374 271
0 374 337
0 373 403
0 365 461
0 364 501
0 364 535
0 364 613
0 364 703
0 364 769
0 365 838
0 374 914
0 377 976
0 364 1017
0 362 1065
0 375 1131
0 383 1200
0 386 1270
0 383 1327
0 385 1389
0 394 1460
0 396 1521
0 400 1583
0 409 1662
0 412 1735
0 412 1781
0 423 1833
0 432 1899
0 440 1976
0 441 2036
0 435 2088
2 426 187
0 428 231
0 428 280
0 428 343
0 428 410
0 421 469
0 412 525
0 412 559
0 414 599
0 414 690
0 412 769
0 412 836
0 415 908
0 423 974
0 424 1032
0 416 1073
0 416 1127
0 424 1194
0 430 1258
0 430 1324
0 433 1398
0 441 1472
0 444 1533
0 444 1591
0 450 1664
0 458 1747
0 458 1798
0 458 1840
0 467 1909
0 476 1975
0 476 2032
0 476 2090
10 459 228
2 467 253
0 469 297
0 469 347
0 469 410
0 469 476
0 462 533
0 454 583
0 455 624
0 464 682
0 461 760
0 453 811
0 456 886
0 465 974
0 466 1033
0 457 1082
0 457 1136
0 466 1202
0 474 1263
0 480 1324
0 480 1401
0 483 1481
0 485 1538
0 485 1591
0 492 1656
0 500 1730
0 495 1786
0 491 1831
0 506 1916
0 517 1992
0 517 2043
0 517 2098
19 497 262
8 503 292
0 511 319
0 513 368
0 512 417
0 511 479
0 511 542
0 504 592
0 499 647
0 508 707
0 513 762
0 505 812
0 503 869
0 511 960
0 512 1036
0 504 1086
0 501 1149
0 510 1215
0 513 1272
0 521 1330
0 527 1398
0 527 1481
0 529 1546
0 529 1596
0 536 1661
0 544 1727
0 541 1780
0 533 1830
0 541 1908
0 558 1999
0 559 2054
0 559 2104
27 547 279
10 547 320
0 553 352
0 561 401
0 562 450
0 554 492
0 552 550
0 552 600
0 549 656
0 557 730
0 563 787
0 563 837
0 561 893
0 569 960
0 570 1037
0 562 1094
0 558 1160
0 559 1240
0 558 1292
0 554 1338
0 563 1401
0 568 1473
0 574 1544
0 579 1604
0 585 1673
0 594 1744
0 595 1797
0 591 1846
0 590 1911
0 599 1991
0 600 2051
0 600 2104
38 597 301
15 600 340
0 600 381
0 606 428
0 614 478
0 610 522
0 601 565
0 600 614
0 600 668
0 607 742
0 610 806
0 610 855
0 613 911
0 621 978
0 625 1037
0 617 1095
0 613 1166
0 613 1248
0 611 1314
0 603 1356
0 599 1406
0 607 1473
0 622 1548
0 630 1615
0 632 1681
0 640 1756
0 642 1810
0 642 1860
0 645 1924
0 645 1990
0 642 2052
0 642 2110
55 646 335
22 655 368
0 658 406
0 658 448
0 664 495
0 672 544
0 668 589
0 659 639
0 658 693
0 658 759
0 660 823
0 652 864
0 654 920
0 663 986
0 667 1045
0 667 1095
0 663 1166
0 663 1248
0 663 1317
0 661 1372
0 653 1419
0 649 1473
0 668 1556
0 688 1640
0 684 1700
0 682 1764
0 683 1818
0 683 1868
0 690 1932
0 695 1999
0 687 2065
0 683 2126
64 696 371
31 701 397
0 709 432
0 709 476
0 709 514
0 714 554
0 721 607
0 715 660
0 711 714
0 712 781
0 710 839
0 701 881
0 696 928
0 704 994
0 709 1053
0 709 1103
0 716 1169
0 716 1252
0 712 1325
0 712 1383
0 714 1443
0 706 1492
0 706 1552
0 731 1644
0 738 1721
0 730 1779
0 728 1830
0 728 1880
0 736 1944
0 744 2011
0 740 2077
0 732 2143
64 746 413
31 746 429
0 750 456
0 750 506
0 750 547
0 750 564
0 754 607
0 754 673
0 752 731
0 760 797
0 759 856
0 751 897
0 746 945
0 746 1003
0 750 1061
0 750 1111
0 758 1177
0 774 1260
0 769 1334
0 762 1399
0 767 1462
0 772 1526
0 764 1575
0 764 1635
0 777 1720
0 780 1795
0 778 1847
0 778 1897
0 785 1961
0 794 2027
0 794 2093
0 790 2160
60 796 446
31 796 467
0 796 484
0 800 527
0 800 575
0 800 601
0 798 623
0 796 681
0 798 747
0 806 814
0 812 878
0 805 922
0 800 970
0 800 1028
0 796 1075
0 796 1124
0 800 1186
0 816 1269
0 827 1338
0 819 1404
0 813 1471
0 821 1537
0 826 1600
0 818 1650
0 818 1716
0 826 1799
0 828 1859
0 828 1909
0 835 1982
0 843 2048
0 840 2102
0 840 2168
52 845 471
27 845 496
0 846 517
0 854 551
0 858 592
0 858 634
0 856 664
0 848 706
0 848 764
0 856 830
0 862 894
0 862 952
0 858 1003
0 858 1061
0 854 1108
0 846 1141
0 850 1202
0 858 1277
0 870 1346
0 877 1404
0 869 1471
0 863 1537
0 871 1603
0 876 1666
0 874 1729
0 876 1799
0 878 1862
0 878 1917
0 885 1996
0 893 2073
0 886 2116
0 881 2168
43 895 500
23 905 535
0 905 558
0 909 579
0 916 613
0 916 655
0 914 693
0 906 728
0 900 778
0 906 847
0 911 908
0 911 964
0 911 1022
0 911 1080
0 911 1134
0 904 1170
0 904 1215
0 912 1289
0 916 1354
0 924 1412
0 931 1480
0 923 1546
0 922 1608
0 930 1674
0 932 1741
0 932 1807
0 932 1871
0 932 1929
0 935 2000
0 943 2082
0 945 2145
0 937 2187
35 945 534
19 962 575
0 971 608
0 971 616
0 974 638
0 974 680
0 972 718
0 964 743
0 958 786
0 958 861
0 961 925
0 961 974
0 961 1030
0 961 1088
0 961 1143
0 961 1192
0 962 1240
0 970 1298
0 974 1362
0 974 1420
0 982 1489
0 990 1563
0 987 1623
0 988 1683
0 990 1749
0 990 1815
0 990 1882
0 990 1946
0 990 2011
0 993 2082
0 1001 2158
0 1003 2220
53 1005 582
15 1011 593
0 1027 635
0 1032 666
0 1031 674
0 1027 699
0 1028 744
0 1027 783
0 1021 814
0 1021 880
0 1021 946
0 1021 996
0 1021 1052
0 1021 1112
0 1021 1167
0 1021 1216
0 1021 1274
0 1028 1333
0 1032 1382
0 1032 1439
0 1037 1502
0 1045 1577
0 1043 1640
0 1043 1698
0 1048 1762
0 1048 1829
0 1048 1911
0 1048 1977
0 1053 2028
0 1053 2094
0 1056 2173
0 1064 2248
86 1071 640
36 1071 632
0 1077 643
0 1085 693
0 1089 724
0 1081 732
0 1078 760
0 1086 818
0 1087 864
0 1087 914
0 1087 971
0 1087 1021
0 1087 1077
0 1087 1143
0 1087 1200
0 1087 1249
0 1087 1308
0 1087 1374
0 1090 1424
0 1090 1465
0 1095 1527
0 1103 1593
0 1100 1657
0 1092 1715
0 1099 1779
0 1106 1845
0 1106 1932
0 1106 2018
0 1113 2063
0 1119 2110
0 1119 2192
0 1122 2273
119 1138 675
92 1138 684
41 1138 678
0 1146 712
0 1153 759
0 1144 777
0 1138 793
0 1142 846
0 1148 900
0 1148 946
0 1148 996
0 1148 1046
0 1148 1099
0 1148 1162
0 1148 1221
0 1148 1271
0 1148 1333
0 1148 1401
0 1153 1468
0 1154 1512
0 1154 1548
0 1161 1613
0 1164 1679
0 1156 1737
0 1160 1801
0 1168 1868
0 1164 1931
0 1164 2022
0 1177 2104
0 1185 2146
0 1191 2220
0 1191 2303
152 1204 700
136 1204 717
108 1204 728
41 1213 753
0 1219 784
0 1211 809
0 1204 834
0 1204 884
0 1206 934
0 1206 975
0 1206 1021
0 1206 1071
0 1206 1124
0 1206 1182
0 1206 1238
0 1206 1288
0 1206 1350
0 1206 1425
0 1211 1493
0 1219 1559
0 1220 1598
0 1220 1631
0 1222 1695
0 1222 1762
0 1226 1826
0 1234 1892
0 1229 1952
0 1222 2014
0 1237 2105
0 1252 2187
0 1260 2260
0 1266 2336
173 1270 744
138 1270 767
119 1271 783
58 1279 796
0 1285 823
0 1277 858
0 1272 885
0 1276 925
0 1274 971
0 1270 1008
0 1270 1052
0 1270 1102
0 1270 1152
0 1270 1206
0 1274 1268
0 1276 1323
0 1276 1373
0 1276 1441
0 1276 1516
0 1283 1584
0 1291 1650
0 1292 1687
0 1292 1732
0 1292 1797
0 1292 1851
0 1301 1917
0 1314 2002
0 1306 2060
0 1295 2109
0 1311 2201
0 1320 2282
0 1328 2357
190 1337 794
148 1337 819
110 1337 841
52 1345 849
0 1352 865
0 1343 906
0 1338 943
0 1346 976
0 1349 1012
0 1341 1045
0 1337 1085
0 1337 1135
0 1337 1185
0 1337 1234
0 1340 1293
0 1348 1359
0 1351 1414
0 1351 1464
0 1351 1532
0 1351 1607
0 1358 1675
0 1366 1741
0 1367 1790
0 1367 1840
0 1367 1892
0 1367 1942
0 1382 2029
0 1397 2118
0 1382 2161
0 1369 2209
0 1378 2292
0 1386 2374
186 1403 843
165 1410 862
122 1410 885
57 1412 887
6 1417 898
0 1403 934
0 1399 975
0 1413 1014
0 1417 1051
0 1409 1094
0 1405 1134
0 1410 1188
0 1410 1235
0 1410 1281
0 1410 1331
0 1415 1391
0 1419 1453
0 1419 1505
0 1419 1564
0 1419 1637
0 1419 1701
0 1426 1766
0 1434 1827
0 1435 1877
0 1435 1940
0 1435 1990
0 1435 2047
0 1452 2138
0 1459 2206
0 1443 2247
0 1443 2307
0 1451 2390
178 1469 893
161 1477 910
138 1484 926
72 1484 926
14 1483 931
6 1467 965
0 1457 1000
0 1474 1042
0 1483 1084
0 1475 1134
0 1472 1184
0 1480 1242
0 1484 1293
0 1484 1334
0 1484 1381
0 1484 1430
0 1485 1486
0 1485 1544
0 1485 1606
0 1485 1672
0 1485 1734
0 1485 1792
0 1492 1851
0 1500 1909
0 1501 1973
0 1501 2039
0 1501 2096
0 1501 2154
0 1511 2224
0 1517 2289
0 1516 2346
0 1517 2407
206 1550 950
189 1551 967
172 1559 983
139 1559 989
